!!!!SEGMENT: pl-wtm--r-238-m_moniuszko-stanislaw--maciek.krn
!!!cenid: 18xx:1644
!!!COM: Moniuszko, Stanisław
!!!COM-rismid: pe30008351
!!!CDT: 1819/05/05-1872/06/04
!!!CNT: Polish
!!!OTL: Maciek
!!!PDT:
!!!AGN: Secular
!!!SMS-siglum: PL-Wtm
!!!SMS-shelfmark: R 238/M
!!!SMS-shelfwork: W
!!!SMS-variant:
!!!SMS-altvar:
!!!NIFC-rismid: 1001063773
!!!URL-scan: http://repozytorium.nifc.pl/skany/pl-wtm-nut--r229m
!!!ONB-nifc:
**kern	**dynam	**kern	**fing	**dynam	**kern	**text	**text	**dynam
*part3	*part3	*part2	*	*part2	*part1	*part1	*part1	*part1
*staff3	*	*staff2	*	*	*staff1	*staff1	*staff1	*
*Iforte	*	*Iforte	*	*	*Ivox	*	*	*
*I"Fortepian	*	*I"Fortepian	*	*	*I"[Voice]	*	*	*
*I'pf	*	*I'pf	*	*	*I'V	*	*	*
*clefF4	*	*clefG2	*	*	*clefG2	*	*	*
*k[]	*	*k[]	*	*	*k[]	*	*	*
*G:	*	*G:	*	*	*G:	*	*	*
*M3/4	*	*M3/4	*	*	*M3/4	*	*	*
*>[A,B,B,C]	*	*[A,B,B,C]	*	*	*[A,B,B,C]	*	*	*
=1	=1	=1	=1	=1	=1	=1	=1	=1
*>A	*	*>A	*	*	*>A	*	*	*
*2\right	*	*2\right	*	*	*2\right	*	*	*
!	!	!	!	!	!LO:TX:a:i:t=Allegro.	!	!	!
!	!	!	!	!	!LO:TX:a:t=P:problem:w źródle "19" zapisane ołówkiem	!	!	!
!	!	!	!	!	!LO:TX:a:i:t=19 Maciek. [space] T. Lenartowicza.	!	!	!
!	!	!	!	!	!LO:TX:a:i:t=Ignacemu Zaleskiemu.	!	!	!
!	!	!	!	!	!LO:TX:a:t=P:problem:w źródle "Śpiewnik domowy" zapisane zieloną kredką	!	!	!
!	!	!	!	!	!LO:TX:a:i:t=Śpiewnik domowy	!	!	!
!	!	!	!	!LO:DY:b:rj:t=f.	!	!	!	!
8.a\L	.	8.aa\L	.	f	2.r	.	.	.
16g\Jk	.	16gg\Jk	.	.	.	.	.	.
4f\	.	4ff\	.	.	.	.	.	.
8e\L	.	8ee\L	.	.	.	.	.	.
8f\J	.	8ff\J	.	.	.	.	.	.
=2	=2	=2	=2	=2	=2	=2	=2	=2
4g'\	.	4gg'\	.	.	2.r	.	.	.
4e'\	.	4ee'\	.	.	.	.	.	.
4c'\	.	4cc'\	.	.	.	.	.	.
=3	=3	=3	=3	=3	=3	=3	=3	=3
8.f\L	.	8.ff\L	.	.	2.r	.	.	.
16e\Jk	.	16ee\Jk	.	.	.	.	.	.
4d\	.	4dd\	.	.	.	.	.	.
8c\L	.	8cc\L	.	.	.	.	.	.
8d\J	.	8dd\J	.	.	.	.	.	.
=4	=4	=4	=4	=4	=4	=4	=4	=4
4e'\	.	4ee'\	.	.	2.r	.	.	.
4c'\	.	4cc'\	.	.	.	.	.	.
4A'\	.	4a'/	.	.	.	.	.	.
=5	=5	=5	=5	=5	=5	=5	=5	=5
8.d\L	.	8.dd\L	.	.	8.dd\	Hej	.	.
16c\Jk	.	16cc\Jk	.	.	16cc\	do	.	.
4B-X\	.	4b-X\	.	.	4b-X\	tań-	.	.
8A\L	.	8a\L	.	.	8a\L	-ca	.	.
8B-\J	.	8b-\J	.	.	8b-\J	.	.	.
=6	=6	=6	=6	=6	=6	=6	=6	=6
4c'\	.	4cc'\	.	.	4cc\	dzie-	.	.
4A'\	.	4a'/	.	.	4a/	-wu-	.	.
!	!	!	!	!	!LO:N:vis=4.	!	!	!
4F'\	.	4f'/	.	.	4f/	-chy!	.	.
!!LO:LB:g=original
=7	=7	=7	=7	=7	=7	=7	=7	=7
8.B-X\L	.	8.b-X/L	.	.	8.b-X/	graj-	.	.
16A\Jk	.	16a/Jk	.	.	16a/	-że	.	.
4G\	.	4g/	.	.	4g/	du-	.	.
8F\L	.	8f/L	.	.	8f/L	-dko	.	.
8G\J	.	8g/J	.	.	8g/J	.	.	.
=8	=8	=8	=8	=8	=8	=8	=8	=8
4A\	.	4a/	.	.	4a/	Jaś-	.	.
4F\	.	4f/	.	.	4f/	-ko-	.	.
4D\	.	4d/	.	.	4d/	-wa!	.	.
=9	=9	=9	=9	=9	=9	=9	=9	=9
2.r;>	.	2.r;>	.	.	2.r;>	.	.	.
=10	=10	=10	=10	=10	=10	=10	=10	=10
*^	*	*^	*	*	*	*	*	*
!	!	!	!	!	!	!LO:HP:b	!	!	!	!
!	!	!	!	!	!	!LO:DY:b:rj	!	!	!	!
2.A/	(>4C#X\	.	2.a/	(<4g 4e\	.	p >	8.a/	Cóz	.	.
.	.	.	.	.	.	.	16a/	to	.	.
.	2D\)	.	.	2f 2d\)	.	]	4f/	graj-	.	.
.	.	.	.	.	.	.	4d/	-ku,	.	.
=11	=11	=11	=11	=11	=11	=11	=11	=11	=11	=11
!	!	!	!	!	!	!LO:HP:b	!	!	!	!
2.A/	(>4C#X\	.	2.a/	(<4g 4e\	.	>	8.a/	cyś	.	.
.	.	.	.	.	.	.	16a/	ty	.	.
.	2D\)	.	.	2f 2d\)	.	]	4f/	głu-	.	.
.	.	.	.	.	.	.	4d/	-chy	.	.
=12	=12	=12	=12	=12	=12	=12	=12	=12	=12	=12
!	!	!	!	!	!	!LO:HP:b	!	!	!	!
2.G/	(>4BB\	.	2.g/	(<4f 4d\	.	>	8.g/	ze	.	.
.	.	.	.	.	.	.	16g/	tak	.	.
.	2C\)	.	.	2e-X 2c\)	.	]	4e-X/	sie-	.	.
.	.	.	.	.	.	.	4c/	-dzis	.	.
!!LO:LB:g=original
=13	=13	=13	=13	=13	=13	=13	=13	=13	=13	=13
!	!	!	!	!	!	!LO:HP:b	!	!	!	!
2.G/	(>4BB\	.	2.g/	(<4f 4d\	.	>	8.g/	jak-	.	.
.	.	.	.	.	.	.	16g/	-by	.	.
.	2C\)	.	.	2e-X 2c\)	.	]	4e-X/	so-	.	.
.	.	.	.	.	.	.	4c/	-wa?	.	.
*v	*v	*	*	*	*	*	*	*	*	*
*	*	*v	*v	*	*	*	*	*	*
=14	=14	=14	=14	=14	=14	=14	=14	=14
2.r;>	.	2.r;>	.	.	2.r;>	.	.	.
=15	=15	=15	=15	=15	=15	=15	=15	=15
4r	.	8cc\L	.	.	8cc\	a-	.	.
.	.	8b-X\J	.	.	8b-X\	-no	.	.
4r	.	4a/	.	.	4a\	zy-	.	.
(>4e-X\	>	8g/L	.	.	8g\L	-wo	.	.
.	]	8a/J	.	.	8a\J	.	.	.
=16	=16	=16	=16	=16	=16	=16	=16	=16
4d\)	.	4b-X'/	.	.	4b-X\	do	.	.
4B-X\	.	4g'/	.	.	4g/	li-	.	.
4G\	.	4dd'\	.	.	4dd\	-cha!	.	.
=17	=17	=17	=17	=17	=17	=17	=17	=17
4r	.	8.cc\L	.	.	8.cc\	coś	.	.
.	.	16b-X\Jk	.	.	16b-X\	to	.	.
4r	.	4a\	.	.	4a\	wam	.	.
(<4E-X/	.	8g\L	.	.	8g/L	się	.	.
.	.	8a\J	.	.	8a/J	.	.	.
=18	=18	=18	=18	=18	=18	=18	=18	=18
4D/)	.	4b-X'/	.	.	4b-X/	przy-	.	.
4BB-X/	.	4g'/	.	.	4g/	-da-	.	.
4DD'/	.	4d'/	.	.	4dd\	-lo?	.	.
!!LO:LB:g=original
=19||	=19||	=19||	=19||	=19||	=19||	=19||	=19||	=19||
*M4/4	*	*M4/4	*	*	*M4/4	*	*	*
*met(c)	*	*met(c)	*	*	*met(c)	*	*	*
!	!	!	!	!LO:DY:b:rj	!LO:TX:a:i:t=lento.	!	!	!
2r	.	2.g 2.G/	.	fp	2r	.	.	.
4r	.	.	.	.	4r	.	.	.
(>4B [<4G\	.	8.ddL 8.f/	.	.	8g/	Kaz-	.	.
.	.	.	.	.	8g/	-dy	.	.
.	.	16ddJk 16f/	.	.	.	.	.	.
=20	=20	=20	=20	=20	=20	=20	=20	=20
4.c 4.G\])	.	(<4cc 4e-X/	.	.	4cc\	sie-	.	.
.	.	8a/)	.	.	4g/	-dzi,	.	.
8r	.	8r	.	.	.	.	.	.
4r	.	4r	.	.	4r	.	.	.
(>4B [<4G\	.	8.ddL 8.f/	.	.	8g/	Kaz-	.	.
.	.	.	.	.	8g/	-dy	.	.
.	.	16ddJk 16f/	.	.	.	.	.	.
=21||	=21||	=21||	=21||	=21||	=21||	=21||	=21||	=21||
*M3/4	*	*M3/4	*	*	*M3/4	*	*	*
!	!	!	!	!	!LO:TX:a:i:t=tempo 1mo	!	!	!
4.c 4.G\])	.	(<4cc 4e-X/	.	.	4cc\	wzdy-	.	.
.	.	8g/)	.	.	8g/	-cha,	.	.
8r	.	8r	.	.	8r	.	.	.
(>[<4G 4BB\	.	(<[>4g 4f 4d/	.	.	8g/	cy	.	.
.	.	.	.	.	8g/	złe	.	.
=22	=22	=22	=22	=22	=22	=22	=22	=22
4G] 4C\)	.	4g] 4e-X 4c/)	.	.	4cc\	lu-	.	.
4G 4C\	.	4e- 4c/	.	.	4cc\	-dzi	.	.
[>4B-X 4BB-X\	.	4f 4d/	.	.	4dd\	spę-	.	.
=23||	=23||	=23||	=23||	=23||	=23||	=23||	=23||	=23||
*M4/4	*	*M4/4	*	*	*M4/4	*	*	*
*met(c)	*	*met(c)	*	*	*met(c)	*	*	*
*	*	*^	*	*	*	*	*	*
!	!	!	!	!	!	!LO:TX:a:i:t=lento.	!	!	!
4.B-] 4.E-X\	.	(<4g/	4.e-X\	.	.	4ee-X\	-ta-	.	.
.	.	8b-X/)	.	.	.	4e-X/	-ło?	.	.
8r	.	8r	8rAyy	.	.	.	.	.	.
4r	.	4r	2rAyy	.	.	4r	.	.	.
(>4A [<4F\	.	8.ccL 8.f/	.	.	.	8f/	Bar-	.	.
.	.	.	.	.	.	8f/	-tek	.	.
.	.	16ccJk 16f/	.	.	.	.	.	.	.
*	*	*v	*v	*	*	*	*	*	*
!!LO:PB:g=original
=24||	=24||	=24||	=24||	=24||	=24||	=24||	=24||	=24||
*M3/4	*	*M3/4	*	*	*M3/4	*	*	*
4.B-X 4.F\)]	.	(>4b-X (<4d/	.	.	4b-X\	z bo-	.	.
.	.	8f/))	.	.	4dd\	-ku	.	.
8r	.	8r	.	.	.	.	.	.
(>4A [<4F\	.	8.ccL 8.f 8.e-X/	.	.	4f/	po-	.	.
.	.	16ccJk 16e-/	.	.	.	.	.	.
=25||	=25||	=25||	=25||	=25||	=25||	=25||	=25||	=25||
*M4/4	*	*M4/4	*	*	*M4/4	*	*	*
*met(c)	*	*met(c)	*	*	*met(c)	*	*	*
4.B-X 4.F\])	.	4b-X 4d/	.	.	4b-X\	-zié-	.	.
.	.	8f/	.	.	4dd\	-ra,	.	.
8r	.	8r	.	.	.	.	.	.
4r	.	4r	.	.	4r	.	.	.
[>4F 4AA\	.	8.e-XL 8.c/	.	.	8f/	łzy	.	.
.	.	.	.	.	8f/	rę-	.	.
.	.	16e-Jk 16c/	.	.	.	.	.	.
=26||	=26||	=26||	=26||	=26||	=26||	=26||	=26||	=26||
*M3/4	*	*M3/4	*	*	*M3/4	*	*	*
4F] 4BB-X\	.	4d 4B-X/	.	.	4b-X\	-ka-	.	.
4B-X 4BB-\	.	4f 4d/	.	.	4b-\	-wem	.	.
4G 4E-X\	.	4g 4c/	.	.	4cc\	o-	.	.
=27||	=27||	=27||	=27||	=27||	=27||	=27||	=27||	=27||
*M4/4	*	*M4/4	*	*	*M4/4	*	*	*
*met(c)	*	*met(c)	*	*	*met(c)	*	*	*
4.A 4.D\	.	(<4f#X 4d/	.	.	4dd\	-cié-	.	.
.	.	8a/)	.	.	4a/	-ra,	.	.
8r	.	8r	.	.	.	.	.	.
2r	.	2r	.	.	4r	.	.	.
.	.	.	.	.	8dd\	a	.	.
.	.	.	.	.	8dd\	dzie-	.	.
!!LO:LB:g=original
=28	=28	=28	=28	=28	=28	=28	=28	=28
!	!	!	!	!LO:DY:b:rj:t=fp.	!	!	!	!
1CC	.	[>1a-X [<1e-X 1c	.	fp	2ee-X\	-wu-	.	.
.	.	.	.	.	4a-X/	-chy	.	.
.	.	.	.	.	8r	.	.	.
.	.	.	.	.	8a-/	pa-	.	.
=29	=29	=29	=29	=29	=29	=29	=29	=29
*	*	*^	*	*	*	*	*	*
1DD-X	.	4a-/]	1e-] 1B-X	.	.	4a-X/	-rob-	.	.
.	.	[>2.g/	.	.	.	4g/	-cy	.	.
.	.	.	.	.	.	4r	.	.	.
.	.	.	.	.	.	8g/	jak	.	.
.	.	.	.	.	.	8g/	nie	.	.
*	*	*v	*v	*	*	*	*	*	*
=30	=30	=30	=30	=30	=30	=30	=30	=30
!LO:SIC:s:v=BBB-	!	!	!	!	!	!	!	!
1DD	.	2g] [<2d 2B-X/	.	.	4.b-X/	swo-	.	.
.	.	.	.	.	8g/	-i,	.	.
.	.	2f#X 2d] 2A/	.	.	4.d/	jak-	.	.
.	.	.	.	.	8c/	-by	.	.
=31	=31	=31	=31	=31	=31	=31	=31	=31
2.GG/	.	2.g 2.d 2.G/	.	.	4c/	ob-	.	.
.	.	.	.	.	4B-X/	-cy.	.	.
.	.	.	.	.	2r;>	.	.	.
4r;>	.	4r;>	.	.	.	.	.	.
*clefG2	*	*	*	*	*	*	*	*
!!LO:LB:g=original
=32||	=32||	=32||	=32||	=32||	=32||	=32||	=32||	=32||
*M3/4	*	*M3/4	*	*	*M3/4	*	*	*
!	!	!	!	!LO:DY:b:t=p.:rj	!LO:TX:a:i:t=tempo 1mo	!	!	!
8dd'\L	.	8ddd'\L	.	p	8dd\	Gdy	.	.
8cc'\J	.	8ccc'\J	.	.	8cc\	tak	.	.
4b-X'\	.	4bb-X'\	.	.	4b-X\	Ma-	.	.
(>8a\L	.	(>8aa\L	.	.	8a\L	-ciek	.	.
8b-\J	.	8bb-\J	.	.	8b-\J	.	.	.
=33	=33	=33	=33	=33	=33	=33	=33	=33
4cc\)	.	4ccc\)	.	.	4cc\	o-	.	.
4a'/	.	4aa'\	.	.	4a/	-cho-	.	.
4f'/	.	4ff'\	.	.	4f/	-czy.	.	.
=34	=34	=34	=34	=34	=34	=34	=34	=34
8b-X'/L	.	8bb-X'\L	.	.	8b-X\	Każ-	.	.
8a'/J	.	8aa'\J	.	.	8a\	-dy	.	.
4g'/	.	4gg'\	.	.	4g/	prze-	.	.
(<8f/L	.	(>8ff\L	.	.	8f/L	-tarł	.	.
8g/J	.	8gg\J	.	.	8g/J	.	.	.
=35	=35	=35	=35	=35	=35	=35	=35	=35
4a/)	.	4aa\)	.	.	4a/	swe	.	.
4f'/	.	4ff'\	.	.	4f/	o-	.	.
4d'/	.	4dd'\	.	.	4d/	-czy	.	.
!!LO:LB:g=original
=36	=36	=36	=36	=36	=36	=36	=36	=36
8g'/L	.	8gg'\L	.	.	8g/	a	.	.
8f'/J	.	8ff'\J	.	.	8f/	Jan	.	.
4e-X'/	.	4ee-X'\	.	.	4e-X/	sta-	.	.
(<8d/L	.	(>8dd\L	.	.	(<8d/	-ry	.	.
8e-/J	.	8ee-\J	.	.	8e-/)	.	.	.
=37	=37	=37	=37	=37	=37	=37	=37	=37
4f/)	.	4ff\)	.	.	4f/	z za	.	.
4d'/	.	4dd'\	.	.	4d/	sto-	.	.
4B-X'/	.	4b-X\	.	.	4B-X/	-ła:	.	.
=38||	=38||	=38||	=38||	=38||	=38||	=38||	=38||	=38||
*M4/4	*	*M4/4	*	*	*M4/4	*	*	*
*met(c)	*	*met(c)	*	*	*met(c)	*	*	*
!	!	!	!	!LO:DY:b:rj:t=fp.	!LO:TX:a:i:t=ad libit.	!	!	!
1r	.	(<2a-X 2e-X 2c/	.	fp	4r	.	.	.
!	!	!	!	!	!	!	!	!LO:HP:a
.	.	.	.	.	8.ee-X\	„Graj-	.	>
.	.	.	.	.	16dd\	-że	.	]
.	.	2g 2d 2B-X/)	.	.	4dd\	graj-	.	.
.	.	.	.	.	8g/	-ku!	.	.
.	.	.	.	.	16r	.	.	.
.	.	.	.	.	16b-X/	za-	.	.
*clefF4	*	*	*	*	*	*	*	*
=39||	=39||	=39||	=39||	=39||	=39||	=39||	=39||	=39||
*k[f#]	*	*k[f#]	*	*	*k[f#]	*	*	*
*M2/4	*	*M2/4	*	*	*M2/4	*	*	*
!	!	!	!	!	!LO:TX:t=P:problem:w źródle znak przykluczowy  f# (a nie ff#)	!	!	!
!	!	!LO:TX:t=P:problem:w źródle znak przykluczowy  f# (a nie ff#)	!	!	!LO:TX:a:i:t=allegretto.	!	!	!
2AA 2DD^</	.	4f#X 4d 4A/	.	.	2a/	-wo-	.	.
.	.	4r	.	.	.	.	.	.
=40	=40	=40	=40	=40	=40	=40	=40	=40
2E 2AA^</	.	2r	.	.	4A/	-ła	.	.
.	.	.	.	.	4r	.	.	.
!!LO:PB:g=original
=41	=41	=41	=41	=41	=41	=41	=41	=41
2AA 2DD^</	.	2r	.	.	2r	.	.	.
=42	=42	=42	=42	=42	=42	=42	=42	=42
2E 2AA^</	.	2r	.	.	2r	.	.	.
*	*	*clefF4	*	*	*	*	*	*
=43	=43	=43	=43	=43	=43	=43	=43	=43
*tremolo	*	*	*	*	*	*	*	*
!	!	!	!	!LO:DY:b:t=p.	!	!	!	!
8DD/L	.	16D'\LL	.	p	8.d/	Chwy-	.	.
.	.	16E'\	.	.	.	.	.	.
8DD/	.	16F#'\	.	.	.	.	.	.
.	.	16G'\JJ	.	.	16d/	-cił	.	.
8DD/	.	16F#'\LL	.	.	8f#/	Jó-	.	.
.	.	16E'\	.	.	.	.	.	.
8DD/J	.	16F#'\	.	.	8d/	-zef	.	.
.	.	16D'\JJ	.	.	.	.	.	.
=44	=44	=44	=44	=44	=44	=44	=44	=44
8DD/L	.	16E'\LL	.	.	8e/	za	.	.
!	!	!LO:TX:b:t=cres.cen.do:problem:dynamics with dot extensions	!	!	!	!	!	!
!	!	!	!	!LO:HP:b:i:t=cres-cen-do:ext=ut	!	!	!	!
.	.	16F#'\	.	<	.	.	.	.
8DD/	.	16G'\	.	.	4g/	ba-	.	.
.	.	16F#'\JJ	.	.	.	.	.	.
8DD/	.	16G'\LL	.	.	.	.	.	.
.	.	16F#'\	.	.	.	.	.	.
8DD/J	.	16G'\	.	.	8e/	-sy,	.	.
.	.	16E'\JJ	.	.	.	.	.	.
=45	=45	=45	=45	=45	=45	=45	=45	=45
8AA 8DD/L	.	16F#'\LL	.	.	8.f#/	zwa-	.	.
.	.	16G'\	.	.	.	.	.	.
8AA 8DD/	.	16A'\	.	.	.	.	.	.
.	.	16B-X'\JJ	.	.	16f#/	-wo	.	.
8AA 8DD/	.	16A'\LL	.	.	8a/	smy-	.	.
.	.	16G'\	.	.	.	.	.	.
8AA 8DD/J	.	16A'\	.	.	8f#/	-kiem	.	.
.	.	16F#'\JJ	.	.	.	.	.	.
=46	=46	=46	=46	=46	=46	=46	=46	=46
8BB-XL 8DD/	.	16G'\LL	.	.	8g/	po-	.	.
.	.	16A'\	.	.	.	.	.	.
8D 8DD/	.	16B-X'\	.	.	4b-X/	-to-	.	.
.	.	16A'\JJ	.	.	.	.	.	.
8D 8DD/	.	16B-'\LL	.	.	.	.	.	.
.	.	16A'\	.	.	.	.	.	.
8DJ 8DD/	.	16B-'\	.	.	8g/	-cył,	.	.
.	.	16G'\JJ	.	.	.	.	.	.
!!LO:LB:g=original
=47	=47	=47	=47	=47	=47	=47	=47	=47
*	*	*clefG2	*	*	*	*	*	*
8C#X 8EE 8DD/L	.	16A'/LL	.	.	8a/	o-	.	.
.	.	16B'/	.	.	.	.	.	.
8C#X 8EE 8DD/	.	16c#X'/	.	.	8a/	-gnia	.	.
.	.	16d'/JJ	.	.	.	.	.	.
8C#X 8EE 8DD/	.	16e'/LL	.	.	8cc#X\	da-	.	.
.	.	16f#'/	.	.	.	.	.	.
8C#X 8EE 8DD/J	.	16g'/	.	.	8a/	-ły	.	.
.	.	16e'/JJ	.	.	.	.	.	.
=48	=48	=48	=48	=48	=48	=48	=48	=48
8D 8GG 8DD/L	.	16d'/LL	.	.	8b-X\	ob-	.	.
.	.	16b-X'/	.	.	.	.	.	.
8D 8GG 8DD/	.	16dd'/	.	[	4dd\	-ca-	.	.
.	.	16cc'/JJ	.	.	.	.	.	.
8D 8GG 8DD/	.	16b-'/LL	.	.	.	.	.	.
.	.	16a'/	.	.	.	.	.	.
8D 8GG 8DD/J	.	16b-'/	.	.	8b-\	-sy,	.	.
.	.	16g'/JJ	.	.	.	.	.	.
=49	=49	=49	=49	=49	=49	=49	=49	=49
8C#X 8AA 8EE 8DD/L	.	16a'\LL	.	.	8.a/	Ma-	.	.
.	.	16b'\	.	.	.	.	.	.
8C#X 8AA 8EE 8DD/	.	16cc#X'\	.	.	.	.	.	.
!	!	!	!	!LO:HP:b	!	!	!	!
.	.	16dd'\JJ	.	<	16a/	-ciek	.	.
8C#X 8AA 8EE 8DD/	.	16ee'\LL	.	.	8a/	w tań-	.	.
.	.	16ff#X'\	.	.	.	.	.	.
8C#X 8AA 8EE 8DD/J	.	16gg'\	.	.	8g/	-cu	.	.
.	.	16ee'\JJ	.	.	.	.	.	.
=50	=50	=50	=50	=50	=50	=50	=50	=50
8D 8AA 8FF# 8DD/L	.	16dd'\LL	1	.	16f#X/LL	pod-	.	.
.	.	16ee'\	.	.	16e/JJ	.	.	.
8D 8AA 8FF# 8DD/	.	16ff#'\	.	.	4d/	-sko-	.	.
.	.	16gg'\JJ	4	.	.	.	.	.
8D 8AA 8FF# 8DD/	.	16aa'\LL	1	.	.	.	.	.
.	.	16bbn'\	.	.	.	.	.	.
8D 8AA 8FF# 8DD/J	.	16ccc'\	.	.	16d/	-cył:	.	.
.	.	16aa'\JJ	1	[[	16r	.	.	.
!!LO:LB:g=original
=51	=51	=51	=51	=51	=51	=51	=51	=51
!	!	!	!	!	!	!	!	!LO:DY:a:rj
8D 8BB 8GG 8DD/L	.	(>16ddd^<\LL	4	f	(>16b\LL	„Oj	.	ff
.	.	16ccc\)	.	.	16dd\JJ)	.	.	.
8D 8BB 8GG 8DD/	.	16bb'\	.	.	16r	.	.	.
.	.	16aa'\JJ	.	.	16dd\	da	.	.
8D 8BB 8GG 8DD/	.	16gg'\LL	4	.	8dd\	da-	.	.
.	.	16ff#'\	.	.	.	.	.	.
8D 8BB 8GG 8DD/J	.	16ee'\	.	.	8dd\	-na	.	.
.	.	16dd'\JJ	.	.	.	.	.	.
=52	=52	=52	=52	=52	=52	=52	=52	=52
8D 8AA 8DD/L	.	(16cc#X^</LL	4	.	8cc#X\	oj	.	.
.	.	16b/)	.	.	.	.	.	.
8D 8AA 8DD/	.	16a'/	.	.	4ee^^>\	da-	.	.
.	.	16g'/JJ	.	.	.	.	.	.
8D 8AA 8DD/	.	16f#'/LL	3	.	.	.	.	.
.	.	16e'/	.	.	.	.	.	.
8D 8AA 8DD/J	.	16d'/	.	.	8a/	-na	.	.
!	!	!LO:TX:a:t=P:problem:w źródle palcowanie przy tej nucie i w całym następnym takcie zapisane ołówkiem	!	!	!	!	!	!
.	.	16c#X'/JJ	4	.	.	.	.	.
=53	=53	=53	=53	=53	=53	=53	=53	=53
!	!	!LO:TX:t=P:problem:mixed beam	!	!	!	!	!	!
8AA 8FF# 8DD\L	.	(>16cn\LL	3	.	8.a/	do-	.	.
.	.	16B</)	.	.	.	.	.	.
8AA 8FF# 8DD\	.	16A<'/	1	.	.	.	.	.
.	.	16G<'/JJ	3	.	16cc\	-loz	.	.
8AA 8FF# 8DD\	.	16F#<'/LL	2	.	8cc\	mo-	.	.
.	.	16E<'/	1	.	.	.	.	.
8AA 8FF# 8DD\J	.	16D<'/	3	.	8cc\	-ja	.	.
.	.	16C<'/JJ	2	.	.	.	.	.
=54	=54	=54	=54	=54	=54	=54	=54	=54
8GG\	.	(>16BB</LL	.	.	8b\	Ko-	.	.
.	.	16D</	.	.	.	.	.	.
8GG/L	.	16G</	.	.	4dd^^>\	-cha-	.	.
.	.	16A</JJ	.	.	.	.	.	.
8DD/	.	16B<\LL	.	.	.	.	.	.
.	.	16d\	.	.	.	.	.	.
8BBB/J	.	16g\	.	.	8g/	-na	.	.
.	.	16a\JJ)	.	.	.	.	.	.
!!LO:LB:g=original
=55	=55	=55	=55	=55	=55	=55	=55	=55
!LO:TX:t=P:problem:mixed beam	!	!	!	!	!	!	!	!
8GGG/L	.	(<16bLL 16g/	.	.	8.g/	oj	.	.
.	.	16d/	.	.	.	.	.	.
8B\J 8G\	.	16dd 16g/	.	.	.	.	.	.
.	.	16d/JJ	.	.	16b/	da	.	.
!LO:TX:t=P:problem:mixed beam	!	!	!	!	!	!	!	!
8GG/L	.	16bLL 16g/	.	.	8b/	da-	.	.
.	.	16d/	.	.	.	.	.	.
8B\J 8G\	.	16dd 16g/	.	.	8b/	-na	.	.
.	.	16d/JJ)	.	.	.	.	.	.
=56	=56	=56	=56	=56	=56	=56	=56	=56
!LO:TX:t=P:problem:mixed beam	!	!LO:TX:t=P:problem:mixed beam	!	!	!	!	!	!
8C/L	.	(16cc\LL 16a\	.	.	8a/	oj	.	.
.	.	16dd\ 16b\	.	.	.	.	.	.
8cJ 8A\	.	16ee\ 16cc\	.	.	4cc^^>\	da-	.	.
.	.	16e/JJ)	.	.	.	.	.	.
!LO:TX:t=P:problem:mixed beam	!	!	!	!	!	!	!	!
8C/L	.	(<16aLL 16g/	.	.	.	.	.	.
.	.	16e/	.	.	.	.	.	.
8cJ 8A\	.	16a 16g/	.	.	8e/	-na	.	.
.	.	16e/JJ)	.	.	.	.	.	.
=57	=57	=57	=57	=57	=57	=57	=57	=57
8D\L	.	(<16f#/LL	.	.	16f#/LL	do-	.	.
.	.	16d/	.	.	16e/JJ	.	.	.
8AJ 8F#\	.	16a 16f#/	.	.	8d/	-loz	.	.
.	.	16d/JJ	.	.	.	.	.	.
8D\L	.	16ddLL 16f#/)	.	.	8f#/	mo-	.	.
.	.	16d/	.	.	.	.	.	.
*	*	*	*^	*	*	*	*	*
8AJ 8F#\	.	16f# 16c/	5	2	.	8a/	-ja	.	.
.	.	16d/JJ	.	3	.	.	.	.	.
*	*	*	*v	*v	*	*	*	*	*
=58	=58	=58	=58	=58	=58	=58	=58	=58
!	!	!	!	!LO:DY:b:t=ff.	!	!	!	!
8GG 8GGG/	.	8g 8B/	.	ff	8g/	Ko-	.	.
*tremolo	*	*	*	*	*	*	*	*
8B 8G 8D\L	.	4dd 4g 4d^^>/	.	.	4b/	-cha-	.	.
8B 8G 8D\	.	.	.	.	.	.	.	.
8B 8G 8D\J	.	[>8dd^^>\	.	.	8g/	-na.	.	.
!!LO:PB:g=original
=59	=59	=59	=59	=59	=59	=59	=59	=59
*	*	*ped	*	*	*	*	*	*
8GG 8GGG/	.	16dd\LL]	.	ff	2r	.	.	.
.	.	16ffn\	.	.	.	.	.	.
8g 8e-X 8c 8G\L	.	16gg\	.	.	.	.	.	.
.	.	16ff\JJ	.	.	.	.	.	.
8g 8e-X 8c 8G\	.	16ee-X\LL	.	.	.	.	.	.
.	.	16dd\	.	.	.	.	.	.
8g 8e-X 8c 8G\J	.	16ee-\	.	.	.	.	.	.
*	*	*Xped	*	*	*	*	*	*
.	.	16cc\JJ	.	.	.	.	.	.
=60	=60	=60	=60	=60	=60	=60	=60	=60
*	*	*^	*	*	*	*	*	*
*	*	*ped	*	*	*	*	*	*	*
8GG 8GGG/	.	8b-X/	8rcyy	.	.	2r	.	.	.
8d 8B- 8G 8D\L	.	4dd/	8b-L 8g\	.	.	.	.	.	.
8d 8B- 8G 8D\	.	.	8b- 8g\	.	.	.	.	.	.
8d 8B- 8G 8D\J	.	8dd/	8b-J 8g\	.	.	.	.	.	.
*	*	*Xped	*	*	*	*	*	*	*
*	*	*v	*v	*	*	*	*	*	*
=61	=61	=61	=61	=61	=61	=61	=61	=61
*	*	*ped	*	*	*	*	*	*
8GG 8GGG/	.	16cc/LL	.	.	2r	.	.	.
.	.	16b-X/	.	.	.	.	.	.
8d 8A 8F# 8D\L	.	16a/	.	.	.	.	.	.
.	.	16b-/JJ	.	.	.	.	.	.
8d 8A 8F# 8D\	.	16cc/LL	.	.	.	.	.	.
.	.	16b-/	.	.	.	.	.	.
8d 8A 8F# 8D\J	.	16cc/	.	.	.	.	.	.
.	.	16a/JJ	.	.	.	.	.	.
*	*	*Xped	*	*	*	*	*	*
=62	=62	=62	=62	=62	=62	=62	=62	=62
*	*	*^	*	*	*	*	*	*
*	*	*ped	*	*	*	*	*	*	*
8GG 8GGG/	.	8b-X/	8rcyy	.	.	2r	.	.	.
8d 8B-X 8G\L	.	4dd/	8b-L 8g\	.	.	.	.	.	.
8d 8B-X 8G\	.	.	8b- 8g\	.	.	.	.	.	.
8d 8B-X 8G\J	.	8dd/	8b-J 8g\	.	.	.	.	.	.
*	*	*Xped	*	*	*	*	*	*	*
*	*	*v	*v	*	*	*	*	*	*
=63	=63	=63	=63	=63	=63	=63	=63	=63
*	*	*ped	*	*	*	*	*	*
8GG 8GGG/	.	16dd/LL	.	.	2r	.	.	.
.	.	16ff#X/	.	.	.	.	.	.
8e-X 8c 8G\L	.	16gg/	.	.	.	.	.	.
.	.	16ffn/JJ	.	.	.	.	.	.
.	.	8qff/	.	.	.	.	.	.
8e-X 8c 8G\	.	16ee-X/LL	.	.	.	.	.	.
.	.	16dd/	.	.	.	.	.	.
8e-X 8c 8G\J	.	16ee-/	.	.	.	.	.	.
.	.	16cc/JJ	.	.	.	.	.	.
*Xtremolo	*	*	*	*	*	*	*	*
*	*	*Xped	*	*	*	*	*	*
=64	=64	=64	=64	=64	=64	=64	=64	=64
*	*	*ped	*	*	*	*	*	*
8GG 8GGG/	.	8bn/	.	.	8r	.	.	.
!	!	!	!	!LO:DY:b	!	!	!	!
4Bn 4G\	.	4dd 4g 4d/	.	sf	4dd;>\	Cós	.	.
*	*	*Xped	*	*	*	*	*	*
8r;>	.	8r;>	.	.	8d/	to?	.	.
!!LO:LB:g=original
=65!|:	=65!|:	=65!|:	=65!|:	=65!|:	=65!|:	=65!|:	=65!|:	=65!|:
*>B	*	*>B	*	*	*>B	*	*	*
!	!	!	!	!LO:DY:b:t=f.	!	!	!	!LO:DY:a:t=f.
8G 8GG/	.	8r	.	f	8d/	Cóz	Co	f
8r	.	4g 4d 4B/	.	.	8g/	to	mam	.
8E 8EE/	.	.	.	.	8g/	Ja-	nie	.
8r	.	8g 8c#X 8A/	.	.	8g/	-sku	być	.
=66	=66	=66	=66	=66	=66	=66	=66	=66
8D 8DD/	.	8r	.	.	16f#/LL	tak	we-	.
.	.	.	.	.	16e/JJ	.	.	.
8r	.	4f# 4d 4A/	.	.	4d/	smu-	-so-	.
8C 8CC/	.	.	.	.	.	.	.	.
8r	.	8f# 8d 8A/	.	.	8d/	-tnie?	-ły	.
=67	=67	=67	=67	=67	=67	=67	=67	=67
!	!	!	!	!	!	!	!	!LO:DY:a
8BB 8BBB/	.	8r	.	.	8.g/	we-	kiej	<
8r	.	8g 8d 8G/	.	.	.	.	.	.
.	.	.	.	.	16b\	-so-	mi	.
!	!	!	!	!	!	!	!	!LO:DY:a
8GG/	.	8r	.	.	8.dd\	-łe-	zde-	[ >
8r	.	8b 8g 8d/	.	.	.	.	.	.
.	.	.	.	.	16b\	-go	-chły	]]
=68	=68	=68	=68	=68	=68	=68	=68	=68
8D\L	.	(<16bLL 16g/	.	.	16b/LL	niech	dwa	.
.	.	16aJJ 16f#/)	.	.	16a/JJ	.	.	.
8dJ 8A\	.	4a 4f#/	.	.	4a/	u-	wo-	.
8D\L	.	.	.	.	.	.	.	.
8dJ 8A\	.	8a 8f#/	.	.	8a/	-tnie,	-ły	.
=69	=69	=69	=69	=69	=69	=69	=69	=69
*	*	*^	*	*	*	*	*	*
!	!	!	!	!	!	!	!	!	!LO:DY:a:t=forte.
8G'\	.	8r	8rFyy	.	.	8b\	bo	nie-	f
8r	.	8b 8g/	8d\	.	.	24b\LL	ja	-chai	.
.	.	.	.	.	.	24cc#X\	.	.	.
.	.	.	.	.	.	24b\JJ	.	.	.
8E'/L	.	8ree	4c#X^>\	.	.	8a/	na	zdy-	.
8AA'/J	.	8g 8e/	.	.	.	8g/	złość	-cha-	.
*	*	*v	*v	*	*	*	*	*	*
=70	=70	=70	=70	=70	=70	=70	=70	=70
8D\	.	8f#L 8d/	.	.	8f#/	mu-	-ją	.
8r	.	8a:J 8f#: 8d: 8A:/	.	.	4a/	-zy-	so-	.
4D 4DD/	.	8r	.	.	.	.	.	.
.	.	8d 8A/	.	.	8d/	-kom	-bie	.
!!LO:LB:g=original
=71	=71	=71	=71	=71	=71	=71	=71	=71
4C/	.	8r	.	.	8e/	smie-	przez	.
.	.	8e 8A 8G/	.	.	24e/LL	-ję	to	.
.	.	.	.	.	24f#/	.	.	.
.	.	.	.	.	24e/JJ	.	.	.
4D/	.	8r	.	.	8d/	się	w po-	.
.	.	8d 8A 8F#/	.	.	8c/	i	-lu	.
=72	=72	=72	=72	=72	=72	=72	=72	=72
!LO:TX:t=P:problem:mixed beam	!	!	!	!	!	!	!	!
8GG'/L	.	(<16BLL 16G/	.	.	16B/LL	wy-	nie	.
.	.	16cJJ 16A/)	.	.	16c/JJ	.	.	.
8G'\J	.	4d 4B^</	.	.	4d/	-ksy-	ro-	.
!LO:TX:t=P:problem:mixed beam	!	!	!	!	!	!	!	!
8GG'/L	.	.	.	.	.	.	.	.
8G'\J	.	8g 8d 8B/	.	.	8g/	-kam:	-bię,	.
=73	=73	=73	=73	=73	=73	=73	=73	=73
!LO:TX:t=P:problem:mixed beam	!	!	!	!LO:DY:b:t=ff.	!	!	!	!LO:DY:a:t=ff.
8GG/L	.	8.bL 8.g 8.d/	.	ff	8.b\	Oj	je-	ff
8BJ 8G\	.	.	.	.	.	.	.	.
.	.	16ddK 16g 16d/	.	.	16dd^^>\	da	-no	.
!LO:TX:t=P:problem:mixed beam	!	!	!	!	!	!	!	!
8GG/L	.	8dd 8g 8d^^>/	.	.	8dd^^>\	da-	w karc-	.
8BJ 8G\	.	8ddJ 8g 8d^^>/	.	.	8dd^^>\	-na	-mie	.
=74	=74	=74	=74	=74	=74	=74	=74	=74
!LO:TX:t=P:problem:mixed beam	!	!	!	!	!	!	!	!
8GG/L	.	8cc#X 8a 8e/	.	.	8cc#X\	oj	tań-	.
8c#XJ 8A 8E\	.	4ee 4a 4e^^>/	.	.	4ee^^>\	da-	-cu-	.
!LO:TX:t=P:problem:mixed beam	!	!	!	!	!	!	!	!
8GG/L	.	.	.	.	.	.	.	.
8c#J 8A 8E\	.	8a 8e/	.	.	8a/	-na	-ję	.
=75	=75	=75	=75	=75	=75	=75	=75	=75
!LO:TX:t=P:problem:mixed beam	!	!	!	!	!	!	!	!
8GG/L	.	8a 8f#/	.	.	(<16a/LL	do-	we-	.
.	.	.	.	.	16cc/JJ)	.	.	.
8AJ 8D\	.	16r	.	.	8cc^^>\	-loz	-se-	.
.	.	16ccKL 16f# 16d 16c/	.	.	.	.	.	.
!LO:TX:t=P:problem:mixed beam	!	!	!	!	!	!	!	!
8GG/L	.	8cc 8f# 8d 8c/	.	.	8cc^^>\	mo-	-lę	.
8AJ 8D\	.	8ccJ 8f# 8d 8c/	.	.	8cc^^>\	-ja	się	.
=76	=76	=76	=76	=76	=76	=76	=76	=76
!LO:TX:t=P:problem:mixed beam	!	!	!	!	!	!	!	!
8GG/L	.	8b/	.	.	8b\	Ko-	ra-	.
8BJ 8D\	.	4dd 4g 4d^^>/	.	.	4dd^^>\	-cha-	-du-	.
!LO:TX:t=P:problem:mixed beam	!	!	!	!	!	!	!	!
8GG/L	.	.	.	.	.	.	.	.
8BJ 8D\	.	8g 8d/	.	.	8g/	-na	-ję	.
!!LO:LB:g=original
=77	=77	=77	=77	=77	=77	=77	=77	=77
8GG/	.	8r	.	.	16g/LL	oj	.	.
.	.	.	.	.	16a/JJ	.	.	.
8r	.	8b 8g 8d/	.	.	8b/	da	.	.
8G\	.	8r	.	.	8b/	da-	.	.
8r	.	8b 8g 8d/	.	.	8b/	-na	.	.
=78	=78	=78	=78	=78	=78	=78	=78	=78
8F#\	.	8a/	.	.	8a\	oj	.	.
8r	.	4dd 4a 4d/	.	.	4dd\	da-	.	.
4BB/	.	.	.	.	.	.	.	.
.	.	8f# 8d/	.	.	8f#/	-na	.	.
=79	=79	=79	=79	=79	=79	=79	=79	=79
4E\	.	8r	.	.	8g/	do-	.	.
*	*	*	*	*	*Xtuplet	*	*	*
.	.	4g 4e 4B/	.	.	24g/LL	-loz	.	.
.	.	.	.	.	24a/	.	.	.
.	.	.	.	.	24g/JJ	.	.	.
4AA/	.	.	.	.	8f#/	mo-	.	.
.	.	8g 8e 8c#X/	.	.	8e/	-ja	.	.
=80	=80	=80	=80	=80	=80	=80	=80	=80
8D\L	.	8r	.	.	8d/	Ko-	.	.
*	*	*	*	*	*tremolo	*	*	*
8AJ 8F#\	.	(>4ff# 4dd 4f# 4d^^>\	.	.	(>8dd\L	-cha-	.	.
8BB\L	.	.	.	.	8dd\J	.	.	.
*	*	*	*	*	*Xtremolo	*	*	*
8BJ 8G\	.	8d/)	.	.	8d/)	-na.	.	.
=81	=81	=81	=81	=81	=81	=81	=81	=81
8Cn\L	.	8e/	.	.	2r	.	.	.
!	!	!LO:TX:a:i:t=legier.	!	!	!	!	!	!
!	!	!LO:TUP:b	!	!	!	!	!	!
8AJ 8G\	.	(<24e/LL	.	.	.	.	.	.
.	.	24f#/	.	.	.	.	.	.
.	.	24e/JJ	.	.	.	.	.	.
8D\L	.	8d'/L)	.	.	.	.	.	.
8AJ 8F#\	.	8dJ 8c'/	.	.	.	.	.	.
!!LO:PB:g=original
=82	=82	=82	=82	=82	=82	=82	=82	=82
!	!	!	!	!LO:DY:b:rj	!	!	!	!LO:DY:a:t=p.
8GG/L	.	(<16dLL 16B/	.	p	8d/	Co	Co	p
.	.	16A/JJ	.	.	.	.	.	.
8D/J	.	4g 4G^</)	.	.	8g/	mam	mam	.
8GG/L	.	.	.	.	8g/	nie	nie	.
8GJ 8D/	.	8g 8B'/	.	.	8g/	być	być	.
=83	=83	=83	=83	=83	=83	=83	=83	=83
!LO:TX:t=P:problem:mixed beam	!	!	!	!	!	!	!	!
8GG/L	.	(<16f#/LL	.	.	16f#/LL	we-	we-	.
.	.	16e/JJ	.	.	16e/JJ	.	.	.
8AJ 8D\	.	4d 4c^/)	.	.	4d/	-so-	-so-	.
!LO:TX:t=P:problem:mixed beam	!	!	!	!	!	!	!	!
8GG/L	.	.	.	.	.	.	.	.
8F#J 8D\	.	8d 8c/	.	.	8d,</	-ły!	-ły!	.
=84	=84	=84	=84	=84	=84	=84	=84	=84
!LO:TX:t=P:problem:mixed beam	!	!	!	!	!	!	!	!
8GG/L	.	8r	.	.	8g/	spa-	mój	<
8G\J	.	8b 8g 8B/	.	.	8b/	-li-	ma-	.
!LO:TX:t=P:problem:mixed beam	!	!	!	!	!	!	!	!
8GG/L	.	8r	.	.	8.dd\	-ły	-ją-	[>
8G\J	.	8b 8g 8d/	.	.	.	.	.	.
.	.	.	.	.	16b\	się	tek	.
=85	=85	=85	=85	=85	=85	=85	=85	=85
8D\L	.	(<16bLL 16g/	.	.	16b/LL	Sto-	dwa	]
.	.	16aJJ 16f#/)	.	.	16a/JJ	.	.	.
8A\J	.	4a 4f# 4d/	.	.	4a/	-do-	do-	.
8D\L	.	.	.	.	.	.	.	.
8A\J	.	8a 8f# 8d/	.	.	8a/	-ły,	-ły	.
=86	=86	=86	=86	=86	=86	=86	=86	=86
*	*	*^	*	*	*	*	*	*
!	!	!	!	!	!	!LO:TX:a:i:t=scherzando.	!	!	!
8G\	.	8r	8reyy	.	.	8b/	Kło-	a 	.
8r	.	8b 8g/	8d\	.	.	24b/LL	-pot	w o-	.
.	.	.	.	.	.	24cc/	.	.	.
.	.	.	.	.	.	24b/JJ	.	.	.
8F#'/L	.	8rgg	4c#X^>\	.	.	8a/	so-	-wych	.
8AA'/J	.	8g 8e/	.	.	.	8g/	-bie	do-	.
*	*	*v	*v	*	*	*	*	*	*
=87	=87	=87	=87	=87	=87	=87	=87	=87
*	*	*	*	*	*^	*	*	*
8D\	.	8r	.	.	16f#/LL	4.ryy	nie	-łach	.
.	.	.	.	.	16g/JJ	.	.	.	.
8r	.	8a: 8f#: 8d: 8A:/	.	.	4a/	.	za-	zo-	.
(<4BB/	.	8r	.	.	.	.	.	.	.
.	.	8d 8G/	.	.	16d/	16d\	-dam	-na	.
.	.	.	.	.	16ryy	16d\	.	z ma-	.
*	*	*	*	*	*v	*v	*	*	*
!!LO:LB:g=original
=88	=88	=88	=88	=88	=88	=88	=88	=88
!LO:TX:t=P:problem:w źródle brak zakończenia łuku	!	!	!	!	!	!	!	!
4C/)0	.	8r	.	.	8e/	kę-	-lu-	.
.	.	8e 8A 8G/	.	.	24e/LL	-dy	-tkiém	.
.	.	.	.	.	24f#/	.	.	.
.	.	.	.	.	24e/JJ	.	.	.
4D/	.	8r	.	.	8d/	zbo-	dzie-	.
.	.	8d 8A 8F#/	.	.	8c/	-ze	-ckiem.	.
=89	=89	=89	=89	=89	=89	=89	=89	=89
!LO:TX:t=P:problem:mixed beam	!	!	!	!	!	!	!	!
8GG/L	.	(<16BLL 16G/	.	.	16B/LL	po-	zło-	.
.	.	16cJJ 16A/	.	.	16c/JJ	.	.	.
8G\J	.	4d 4B^/)	.	.	4d/	-skła-	-zo-	.
!LO:TX:t=P:problem:mixed beam	!	!	!	!	!	!	!	!
8GG/L	.	.	.	.	.	.	.	.
8G\J	.	8g 8d 8B/	.	.	8g/	-dam,	-na.	.
=90	=90	=90	=90	=90	=90	=90	=90	=90
!LO:TX:t=P:problem:mixed beam	!	!	!	!LO:DY:b:t=f.	!	!	!	!LO:DY:a:t=f.
8GG/L	.	8.bL 8.g 8.d/	.	f	8.b\	bo-	oj	f
8BJ 8G\	.	.	.	.	.	.	.	.
.	.	16ddK 16g 16d/	.	.	16dd\	-je	da	.
!LO:TX:t=P:problem:mixed beam	!	!	!	!	!	!	!	!
8GG/L	.	8dd 8g 8d/	.	.	8dd^^>\	gra-	da-	.
8BJ 8G\	.	8ddJ 8g 8d/	.	.	8dd^^>\	-dy	-na	.
=91	=91	=91	=91	=91	=91	=91	=91	=91
!LO:TX:t=P:problem:mixed beam	!	!	!	!	!	!	!	!
8GG/L	.	8cc#X 8a 8e/	.	.	8cc#X\	zło-	oj	.
8c#XJ 8A 8E\	.	4ee 4a 4e^^>/	.	.	4ee^^>\	-ży-	da-	.
!LO:TX:t=P:problem:mixed beam	!	!	!	!	!	!	!	!
8GG/L	.	.	.	.	.	.	.	.
8c#J 8A 8E\	.	8a 8e/	.	.	8a/	-ły,	-na	.
=92	=92	=92	=92	=92	=92	=92	=92	=92
!LO:TX:t=P:problem:mixed beam	!	!	!	!	!	!	!	!
8GG/L	.	8a 8f#/	.	.	8.a/	po-	do-	.
8AJ 8D\	.	16r	.	.	.	.	.	.
.	.	16ccKL 16f# 16d/	.	.	16cc\	-cię-	-loz	.
!LO:TX:t=P:problem:mixed beam	!	!	!	!	!	!	!	!
8GG/L	.	8cc 8f# 8d/	.	.	8cc^^>\	-ły	mo-	.
8AJ 8D\	.	8ccJ 8f# 8d/	.	.	8cc^^>\	i	-ja	.
=93	=93	=93	=93	=93	=93	=93	=93	=93
!LO:TX:t=P:problem:mixed beam	!	!	!	!	!	!	!	!
8GG/L	.	8b/	.	.	8b\	z mło-	Ko-	.
8BJ 8D\	.	4dd 4g 4d^^</	.	.	4dd^^>\	-ci-	-cha-	.
!LO:TX:t=P:problem:mixed beam	!	!	!	!	!	!	!	!
8GG/L	.	.	.	.	.	.	.	.
8BJ 8D\	.	8g 8d/	.	.	8g/	-ły	-na.	.
!!LO:LB:g=original
=94	=94	=94	=94	=94	=94	=94	=94	=94
8BB/L	.	(<16gLL 16d/	.	.	16g/LL	oj	.	.
.	.	16aJJ 16f#/	.	.	16a/JJ	.	.	.
8GJ 8D/	.	8bL 8g/)	.	.	8b/	da	.	.
(<4GG/	.	8b 8g'/	.	.	8b/	da-	.	.
.	.	8b:J 8g: 8d: 8B:/	.	.	8b/	-na	.	.
=95	=95	=95	=95	=95	=95	=95	=95	=95
8C/)	.	8a/	.	.	8a/	oj	.	.
8r	.	(<4cc 4a 4e^</	.	.	4cc\	da-	.	.
8C 8CC/	.	.	.	.	.	.	.	.
8r	.	8e 8c/)	.	.	8e/	-na	.	.
=96	=96	=96	=96	=96	=96	=96	=96	=96
*	*	*^	*	*	*	*	*	*
8D 8DD/	.	8r	8rAyy	.	.	16f#/LL	do-	.	.
.	.	.	.	.	.	16e/JJ	.	.	.
!	!	!	!	!	!LO:HP:a	!	!	!	!
8r	.	(8d/L	4c\	.	>	8d/	-loz	.	.
[>4D 4DD/	.	8f#/)	.	.	]	8f#/	mo-	.	.
.	.	8aJ 8f# 8d/	8c\	.	.	8a\	-ja	.	.
*	*	*v	*v	*	*	*	*	*	*
=97	=97	=97	=97	=97	=97	=97	=97	=97
(>4D] 4GG/	.	8g/	.	.	8g\	Ko-	.	.
.	.	4b 4d 4B^</	.	.	4b\	-cha-	.	.
8G\)	.	.	.	.	.	.	.	.
8r	.	8g 8d/	.	.	8g\	-na.	.	.
=98	=98	=98	=98	=98	=98	=98	=98	=98
!	!	!	!	!LO:DY:b:t=pp.	!LO:TX:t=P:problem:mixed beam	!	!	!LO:DY:a
(>4GG/	.	8b-X/	.	pp	(>16g/LL	Oj	.	>
.	.	.	.	.	16dd\JJ)	.	.	.
!	!	!	!	!	!	!	!	!LO:DY:a:t=ppp.
.	.	4b- 4g 4d/	.	.	8dd\	da	.	ppp
4G\	.	.	.	.	8dd\	da-	.	]
.	.	8b- 8g 8d/	.	.	8dd\	-na	.	.
=99	=99	=99	=99	=99	=99	=99	=99	=99
4C/	.	8a-X 8e-X 8c/	.	.	8cc\	oj	.	.
.	.	4a- 4e- 4c/	.	.	4ee-X\	da-	.	.
4CC/	.	.	.	.	.	.	.	.
.	.	8a- 8e- 8c/	.	.	8a-X/	-na	.	.
=100	=100	=100	=100	=100	=100	=100	=100	=100
4EEn/	.	8g 8e 8B/	.	.	16g#X/LL	do-	.	.
.	.	.	.	.	16a/JJ	.	.	.
.	.	4b 4g#X 4d 4B/	.	.	8b/	-loz	.	.
4E\	.	.	.	.	8b/	mo-	.	.
.	.	8g# 8d 8B/	.	.	8b/	-ja	.	.
!!LO:LB:g=original
=101	=101	=101	=101	=101	=101	=101	=101	=101
4AA/	.	8a 8c/	.	.	8a/	Ko-	.	.
.	.	4cc 4a 4c/	.	.	4cc\	-cha-	.	.
4A\)	.	.	.	.	.	.	.	.
.	.	8a 8e 8c/	.	.	8e/	-na,	.	.
=102	=102	=102	=102	=102	=102	=102	=102	=102
(4E/	.	(<16f#LL 16d/	.	.	16f#/LL	oj	.	.
.	.	16gJJ 16e/	.	.	16g/JJ	.	.	.
.	.	8a 8f#/)	.	.	8a/	da	.	.
4C/	.	8r	.	.	8a/	da-	.	.
.	.	8a 8f# 8d/	.	.	8a/	-na	.	.
=103	=103	=103	=103	=103	=103	=103	=103	=103
4BB/	.	8g 8d/	.	.	8g/	oj	.	.
!	!	!	!	!	!	!	!	!LO:DY:a
.	.	4b 4g 4d/	.	.	4b\	da-	.	.
!	!	!LO:TX:b:t=cres.cen.do:problem:dynamics with line extensions	!	!	!LO:TX:a:t=cres.cen.do.:problem:dynamics with dot extensions	!	!	!LO:HP:a:i:t=cres-cen-do.:ext=ut
!	!	!	!	!LO:HP:b:i:t=cres-cen-do:ext=ud	!	!	!	!
4GG/)	.	.	.	<	.	.	.	<
.	.	8b 8g 8d/	.	.	8b\	-na	.	.
=104	=104	=104	=104	=104	=104	=104	=104	=104
(>4C\	.	8r	.	.	8a/	do-	.	.
.	.	8a 8g 8e/	.	.	24a/LL	-loz	.	.
.	.	.	.	.	24b/	.	.	.
.	.	.	.	.	24a/JJ	.	.	.
4D\	.	8r	.	.	8f#/	mo-	.	.
.	.	8a 8f# 8d/	.	.	8d/	-ja	.	.
=105	=105	=105	=105	=105	=105	=105	=105	=105
4G\	.	8r	.	.	8g/	Ko-	.	.
.	.	8b 8g 8d/	.	.	4b/	-cha-	.	.
4E\	.	8r	.	.	.	.	.	.
.	.	8b 8g 8d/	.	.	8b/	-na,	.	.
=106	=106	=106	=106	=106	=106	=106	=106	=106
4AA/	.	8r	.	.	8a/	do-	.	.
.	.	8a 8e 8c#X/	.	.	24a/LL	-loz	.	.
.	.	.	.	.	24b/	.	.	.
.	.	.	.	.	24a/JJ	.	.	.
4D\	.	8r	.	[	8f#/	mo-	.	[
.	.	8a 8f# 8cn/	.	.	8d/	-ja	.	.
=107	=107	=107	=107	=107	=107	=107	=107	=107
!	!	!	!	!	!	!	!	!LO:DY:a:t=f.
4GG/)	.	8g 8B/	.	.	8g/	Ko-	.	f
.	.	4b 4g 4d 4B^</	.	.	4b/	-cha-	.	.
(<4BB^</	.	.	.	.	.	.	.	.
.	.	8g 8d 8B/	.	.	8B/	-na,	.	.
=108	=108	=108	=108	=108	=108	=108	=108	=108
!	!	!LO:TX:b:i:t=ralent.	!	!	!	!	!	!LO:DY:a
8C/L)	.	8r	.	.	8c/	do-	.	>
!LO:TUP:b	!	!	!	!	!	!	!	!
24C^</L	.	8gL 8e-X 8c/	.	.	24c/LL	-loz	.	.
24D/	.	.	.	.	24d/	.	.	.
24C/JJ	.	.	.	.	24c/JJ	.	.	.
8BB^</L	.	8g 8d 8B/	.	.	8B/	mo-	.	.
8AA^</J	.	8gJ 8c 8A/	.	.	8A/	-ja	.	]]
=109	=109	=109	=109	=109	=109	=109	=109	=109
(<16BB^</LL	.	8g 8d 8B/	.	.	16B/LL	Ko-	.	.
16AA/JJ	.	.	.	.	16A/JJ	.	.	.
4.GG;>/)	.	4g 4d 4G;>/	.	.	4G;>/	-cha-	.	.
.	.	[>8dd^^>\	.	.	8G/	-na.	.	.
!!LO:LB:g=original
=110	=110	=110	=110	=110	=110	=110	=110	=110
!	!	!	!	!LO:DY:b:rj:t=p.	!	!	!	!
8GG/	.	16dd\LL]	.	p	2ryy	.	.	.
.	.	16ffn\	.	.	.	.	.	.
*tremolo	*	*	*	*	*	*	*	*
8e-X 8c 8G\L	.	16gg\	.	.	.	.	.	.
.	.	16ff\JJ	.	.	.	.	.	.
8e-X 8c 8G\	.	16ee-X\LL	.	.	.	.	.	.
.	.	16dd\	.	.	.	.	.	.
8e-X 8c 8G\J	.	16ee-\	.	.	.	.	.	.
.	.	16cc\JJ	.	.	.	.	.	.
=111	=111	=111	=111	=111	=111	=111	=111	=111
8GG/	.	8b\	.	.	2ryy	.	.	.
8d 8B 8G\L	.	4dd^^>\	.	.	.	.	.	.
8d 8B 8G\	.	.	.	.	.	.	.	.
8d 8B 8G\J	.	8dd\	.	.	.	.	.	.
=112	=112	=112	=112	=112	=112	=112	=112	=112
8GG/	.	16cc\LL	.	.	2ryy	.	.	.
.	.	16b\	.	.	.	.	.	.
8d 8c 8G\L	.	16a\	.	.	.	.	.	.
.	.	16b\JJ	.	.	.	.	.	.
8d 8c 8G\	.	16cc\LL	.	.	.	.	.	.
.	.	16b\	.	.	.	.	.	.
8d 8c 8G\J	.	16cc\	.	.	.	.	.	.
.	.	16a\JJ	.	.	.	.	.	.
=113	=113	=113	=113	=113	=113	=113	=113	=113
8GG/	.	8b\	.	.	2ryy	.	.	.
8d 8B 8G\L	.	4dd^^\	.	.	.	.	.	.
8d 8B 8G\	.	.	.	.	.	.	.	.
8d 8B 8G\J	.	[>8dd\	.	.	.	.	.	.
=114	=114	=114	=114	=114	=114	=114	=114	=114
8GG/	.	16dd\LL]	.	.	2ryy	.	.	.
.	.	16ffn\	.	.	.	.	.	.
8e-X 8c 8G\L	.	16gg\	.	.	.	.	.	.
.	.	16ff\JJ	.	.	.	.	.	.
8e-X 8c 8G\	.	16ee-X\LL	.	.	.	.	.	.
.	.	16dd\	.	.	.	.	.	.
8e-X 8c 8G\J	.	16ee-\	.	.	.	.	.	.
.	.	16cc\JJ	.	.	.	.	.	.
=115	=115	=115	=115	=115	=115	=115	=115	=115
8GG/	.	8b\	.	.	2ryy	.	.	.
8d 8B 8G\L	.	4dd\	.	.	.	.	.	.
8d 8B 8G\	.	.	.	.	.	.	.	.
8d 8B 8G\J	.	8dd\	.	.	.	.	.	.
=116	=116	=116	=116	=116	=116	=116	=116	=116
!	!	!LO:TX:b:t=di-mi-nu-en-do.:problem:dynamics with line extensions	!	!LO:HP:b:i:t=di-mi-nu-en-do.:ext=cd	!	!	!	!
8GG/	.	16cc\LL	.	>	2ryy	.	.	.
.	.	16b\	.	.	.	.	.	.
!LO:TX:b:i:t=bis	!	!	!	!	!	!	!	!
8d 8c 8G\L	.	16a\	.	.	.	.	.	.
.	.	16b\JJ	.	.	.	.	.	.
8d 8c 8G\	.	16cc\LL	.	.	.	.	.	.
.	.	16b\	.	.	.	.	.	.
!	!	!LO:TX:a:i:t=bis	!	!	!	!	!	!
8d 8c 8G\J	.	16cc\	.	.	.	.	.	.
.	.	16a\JJ	.	.	.	.	.	.
=117	=117	=117	=117	=117	=117	=117	=117	=117
8GG/	.	8b\	.	.	2ryy	.	.	.
8d 8B 8G\L	.	4dd\	.	.	.	.	.	.
8d 8B 8G\	.	.	.	.	.	.	.	.
8d 8B 8G\J	.	8dd\	.	.	.	.	.	.
=118	=118	=118	=118	=118	=118	=118	=118	=118
!	!	!LO:TX:t=P:problem:t. 118-119 zapisane jako repetycja taktów 116-117	!	!	!	!	!	!
8GG/	.	16cc\LL	.	.	2ryy	.	.	.
.	.	16b\	.	.	.	.	.	.
8d 8c 8G\L	.	16a\	.	.	.	.	.	.
.	.	16b\JJ	.	.	.	.	.	.
8d 8c 8G\	.	16cc\LL	.	.	.	.	.	.
.	.	16b\	.	.	.	.	.	.
8d 8c 8G\J	.	16cc\	.	.	.	.	.	.
.	.	16a\JJ	.	.	.	.	.	.
=119	=119	=119	=119	=119	=119	=119	=119	=119
8GG/	.	8b\	.	.	2ryy	.	.	.
8d 8B 8G\L	.	4dd\	.	.	.	.	.	.
8d 8B 8G\	.	.	.	.	.	.	.	.
8d 8B 8G\J	.	8dd\	.	.	.	.	.	.
=120	=120	=120	=120	=120	=120	=120	=120	=120
8GG/	.	16cc\LL	.	.	2ryy	.	.	.
.	.	16b\	.	.	.	.	.	.
8d 8c 8G\L	.	16a\	.	.	.	.	.	.
.	.	16b\JJ	.	.	.	.	.	.
8d 8c 8G\	.	16cc\LL	.	.	.	.	.	.
.	.	16b\	.	.	.	.	.	.
8d 8c 8G\J	.	16cc\	.	.	.	.	.	.
.	.	16a\JJ	.	.	.	.	.	.
*Xtremolo	*	*	*	*	*	*	*	*
=121	=121	=121	=121	=121	=121	=121	=121	=121
*^	*	*	*	*	*	*	*	*
!LO:TX:t=P:problem:mixed beam	!	!	!	!	!	!	!	!	!
8GG/L	4GG\	.	8g/	.	.	2ryy	.	.	.
!	!	!	!	!	!LO:HP:b	!	!	!	!
8G\J 8D'\	.	.	4g 4d/	.	] <	.	.	.	.
!LO:TX:t=P:problem:mixed beam	!	!	!	!	!	!	!	!	!
8GG/L	4GG\	.	.	.	.	.	.	.	.
8G\J 8D'\	.	.	8g [<8d/	.	.	.	.	.	.
=122	=122	=122	=122	=122	=122	=122	=122	=122	=122
!LO:TX:t=P:problem:mixed beam	!	!	!	!	!	!	!	!	!
8GG/L	4GG\	.	8g 8d/]	.	.	2ryy	.	.	.
8G\J 8D'\	.	.	4g 4d/	.	.	.	.	.	.
!LO:TX:t=P:problem:mixed beam	!	!	!	!	!	!	!	!	!
8GG/L	4GG\	.	.	.	.	.	.	.	.
8G\J 8D'\	.	.	8g 8d/	.	[	.	.	.	.
!!LO:PB:g=original
=123:|!	=123:|!	=123:|!	=123:|!	=123:|!	=123:|!	=123:|!	=123:|!	=123:|!	=123:|!
*>C	*>C	*	*>C	*	*	*>C	*	*	*
16G/LL	8GG\L	.	8d/	.	.	8d/	Graj-	.	.
16A/	.	.	.	.	.	.	.	.	.
16B/	8GJ 8D\	.	4g/	.	.	8g/	-ze	.	.
16c/JJ	.	.	.	.	.	.	.	.	.
16B/LL	8GG\L	.	.	.	.	8g/	du-	.	.
16A/	.	.	.	.	.	.	.	.	.
16B/	8GJ 8D\	.	8d/	.	.	8g/	-dko	.	.
16G/JJ	.	.	.	.	.	.	.	.	.
=124	=124	=124	=124	=124	=124	=124	=124	=124	=124
*	*	*	*^	*	*	*	*	*	*
8ryy	8GG'\L	.	16d/LL	8rF	.	.	16f#/LL	we-	.	.
.	.	.	16e/	.	.	.	16e/JJ	.	.	.
4D/	8D\J	.	16f#/	4A\	.	.	4d/	-so-	.	.
.	.	.	16g/JJ	.	.	.	.	.	.	.
.	8GG\L	.	16f#/LL	.	.	.	.	.	.	.
.	.	.	16e/	.	.	.	.	.	.	.
8D/	8D\J	.	16f#/	8A\	.	.	8d/	-ła	.	.
.	.	.	16d/JJ	.	.	.	.	.	.	.
*v	*v	*	*	*	*	*	*	*	*	*
=125	=125	=125	=125	=125	=125	=125	=125	=125	=125
8GG\L	.	8r	16B\LL	.	.	8.g/	toć	.	.
.	.	.	16c\	.	.	.	.	.	.
8GJ 8D\	.	4.b/	16d\	.	.	.	.	.	.
.	.	.	16e\JJ	.	.	16b/	nikt	.	.
8GG\L	.	.	16d\LL	.	.	8.dd\	na	.	.
.	.	.	16e\	.	.	.	.	.	.
8BJ 8D\	.	.	16f#\	.	.	.	.	.	.
.	.	.	16g\JJ	.	.	16b\	mnie	.	.
=126	=126	=126	=126	=126	=126	=126	=126	=126	=126
8GG\L	.	16b/LL	16g\LL	.	.	16b\LL	nie	.	.
.	.	16a/JJ	16f#\JJ	.	.	16a\JJ	.	.	.
8BJ 8D\	.	4a/	16f#\LL	.	.	4a\	wo-	.	.
.	.	.	16g\JJ	.	.	.	.	.	.
8GG\L	.	.	16f#\LL	.	.	.	.	.	.
.	.	.	16e\	.	.	.	.	.	.
8AJ 8D\	.	8ryy	16f#\	.	.	8a\	-ła,	.	.
.	.	.	16d\JJ	.	.	.	.	.	.
*	*	*v	*v	*	*	*	*	*	*
=127	=127	=127	=127	=127	=127	=127	=127	=127
*^	*	*	*	*	*	*	*	*
!	!	!LO:HP:b	!	!	!	!	!	!	!
8rc	(>4Fn\	>	(<16b/LL	.	.	8b\	nikt	.	.
.	.	.	16dd/)	.	.	.	.	.	.
4d 4B/	.	.	16b/	.	.	8dd\	nie	.	.
.	.	.	16a/JJ	.	.	.	.	.	.
.	8E\)	]	(<16g#X/LL	.	.	8dd\	ce-	.	.
.	.	.	16b/)	.	.	.	.	.	.
8d 8B/	8r	.	16g#/	.	.	8dd\	-ka	.	.
.	.	.	16e/JJ	.	.	.	.	.	.
!!LO:LB:g=original
=128	=128	=128	=128	=128	=128	=128	=128	=128	=128
!LO:TX:t=P:problem:mixed beam	!	!	!LO:TX:b:t=(x)	!	!	!	!	!	!
8AA/L	4rDDDyy	.	16a\LL	.	.	16cc\LL	stę-	.	.
!	!	!	!LO:TX:a:t=P:problem:nuta poprawiona przez głównego skryptora; przed poprawieniem była nuta 16b	!	!	!	!	!	!
.	.	.	16cc\	.	.	16b\JJ	.	.	.
!	!	!	!LO:TX:a:t=P:problem:nuta poprawiona przez głównego skryptora; przed poprawieniem była nuta 16cc	!	!	!	!	!	!
8cJ 8E\	.	.	16a\	.	.	4a\	-sknio-	.	.
!	!	!	!LO:TX:a:t=P:problem:nuta poprawiona przez głównego skryptora; przed poprawieniem była nuta 16a	!	!	!	!	!	!
.	.	.	16g\JJ	.	.	.	.	.	.
8C/L	4C\	.	16f#\LL	.	.	.	.	.	.
!	!	!	!LO:TX:a:t=P:problem:nuta poprawiona przez głównego skryptora; przed poprawieniem była nuta 16g	!	!	!	!	!	!
.	.	.	16a\	.	.	.	.	.	.
!	!	!	!LO:TX:a:t=P:problem:nuta poprawiona przez głównego skryptora; przed poprawieniem była nuta 16a	!	!	!	!	!	!
8BJ 8E/	.	.	16f#\	.	.	8a\	-ny	.	.
!	!	!	!LO:TX:a:t=P:problem:nuta poprawiona przez głównego skryptora; przed poprawieniem była nuta 16g	!	!	!	!	!	!
.	.	.	16e\JJ	.	.	.	.	.	.
=129	=129	=129	=129	=129	=129	=129	=129	=129	=129
!	!	!	!	!	!	!LO:TX:a:t=P:problem:nuta poprawiona przez głównego skryptora; przed poprawieniem była nuta 8f# z kaudą skierowaną do góry	!	!	!
8BB/L	4BB\	.	16d#X/LL	.	.	8f#\	w mej	.	.
.	.	.	16e/	.	.	.	.	.	.
!	!	!	!	!	!	!LO:TX:a:t=P:problem:nuta poprawiona przez głównego skryptora; przed poprawieniem była nuta 8a	!	!	!
8BJ 8F#/	.	.	16d#/	.	.	8f#\	cha-	.	.
.	.	.	16c#X/JJ	.	.	.	.	.	.
!	!	!	!	!	!	!LO:TX:a:t=P:problem:nuta poprawiona przez głównego skryptora; przed poprawieniem była nuta 8a	!	!	!
8BB/L	4BB\	.	16d#/LL	.	.	8.b\	-łu-	.	.
.	.	.	16f#/	.	.	.	.	.	.
8BJ 8F#/	.	.	16b/	.	.	.	.	.	.
!	!	!	!	!	!	!LO:TX:a:t=P:problem:nuta poprawiona przez głównego skryptora; przed poprawieniem była nuta 8a	!	!	!
.	.	.	16a/JJ	.	.	16a\	-pie	.	.
=130	=130	=130	=130	=130	=130	=130	=130	=130	=130
8E/L	4E\	.	16g/LL	.	.	16g/LL	spa-	.	.
.	.	.	16b/	.	.	16f#/JJ	.	.	.
8BJ 8G/	.	.	16g/	.	.	4g/	-lo-	.	.
.	.	.	16e/JJ	.	.	.	.	.	.
8D/L	4D\	.	16f#/LL	.	.	.	.	.	.
.	.	.	16a/	.	.	.	.	.	.
8dJ 8A/	.	.	16dd/	.	.	8a/	-nej,	.	.
.	.	.	16cc/JJ	.	.	.	.	.	.
*v	*v	*	*	*	*	*	*	*	*
=131	=131	=131	=131	=131	=131	=131	=131	=131
!	!	!	!	!LO:DY:b	!	!	!	!
8GG/	.	16bLL 16g/	.	p	8.g/	zy-	.	.
.	.	16d/	.	.	.	.	.	.
*tremolo	*	*	*	*	*	*	*	*
8B 8G\L	.	16dd 16g/	.	.	.	.	.	.
!	!	!	!	!	!LO:TX:a:t=P:problem:nuta poprawiona przez głównego skryptora; przed poprawieniem była nuta 16b	!	!	!
.	.	16d/JJ	.	.	16dd/	-wa	.	.
!	!	!	!	!	!LO:TX:a:t=P:problem:nuta poprawiona przez głównego skryptora; przed poprawieniem była nuta 8b	!	!	!
8B 8G\	.	16bLL 16g/	.	.	8dd/	du-	.	.
.	.	16d/	.	.	.	.	.	.
!	!	!	!	!	!LO:TX:a:t=P:problem:nuta poprawiona przez głównego skryptora; przed poprawieniem była nuta 8b	!	!	!
8B 8G\J	.	16dd 16g/	.	.	8dd/	-sa	.	.
.	.	16d/JJ	.	.	.	.	.	.
*Xtremolo	*	*	*	*	*	*	*	*
=132	=132	=132	=132	=132	=132	=132	=132	=132
!LO:TX:t=P:problem:mixed beam	!	!LO:TX:t=P:problem:mixed beam	!	!	!	!	!	!
8AA/L	.	(>\16cc#XLL 16a\	.	.	8cc#X\	nie	.	.
.	.	16dd\ 16b\	.	.	.	.	.	.
8AJ 8E\	.	16ee\ 16cc#\)	.	.	4ee^^>\	zą-	.	.
.	.	16e/JJ	.	.	.	.	.	.
!LO:TX:t=P:problem:mixed beam	!	!	!	!	!	!	!	!
8AA/L	.	16a/LL	.	.	.	.	.	.
.	.	16e/	.	.	.	.	.	.
8AJ 8E\	.	16a 16g/	.	.	8a/	-da	.	.
.	.	16e/JJ	.	.	.	.	.	.
!!LO:LB:g=original
=133	=133	=133	=133	=133	=133	=133	=133	=133
8GG/	.	16aLL 16f#/	.	.	8a\	próz-	.	.
.	.	16d/	.	.	.	.	.	.
*tremolo	*	*	*	*	*	*	*	*
8A 8D\L	.	16cc 16f#/	.	.	8cc\	-no	.	.
.	.	16d/JJ	.	.	.	.	.	.
8A 8D\	.	16aLL 16f#/	.	.	8cc\	clek	.	.
.	.	16d/	.	.	.	.	.	.
8A 8D\J	.	16cc 16f#/	.	.	8cc\	się	.	.
.	.	16d/JJ	.	.	.	.	.	.
*Xtremolo	*	*	*	*	*	*	*	*
=134	=134	=134	=134	=134	=134	=134	=134	=134
!LO:TX:t=P:problem:mixed beam	!	!LO:TX:t=P:problem:mixed beam	!	!	!	!	!	!
8GG/L	.	16b\LL (>16g\	.	.	8b\	o-	.	.
.	.	16cc\ 16a\	.	.	.	.	.	.
8GJ 8D\	.	16dd\ 16b^<\	.	.	4dd\	-glą-	.	.
.	.	16d/JJ)	.	.	.	.	.	.
!LO:TX:t=P:problem:mixed beam	!	!LO:TX:t=P:problem:mixed beam	!	!	!	!	!	!
8GG/L	.	16dd\LL 16b\	.	.	.	.	.	.
.	.	16d/	.	.	.	.	.	.
8GJ 8D\	.	16g/	.	.	8g/	-da,	.	.
.	.	16d/JJ	.	.	.	.	.	.
=135	=135	=135	=135	=135	=135	=135	=135	=135
*^	*	*	*	*	*	*	*	*
8BB/L	(<4BB\	.	16g/LL	.	.	8.g/	więc	.	.
.	.	.	16f# 16d/	.	.	.	.	.	.
8GJ 8D/	.	.	16b 16g/	.	.	.	.	.	.
.	.	.	16d/JJ	.	.	16b/	tań-	.	.
8GG/L	4GG\)	.	16bLL 16g/	.	.	8b/	-cu-	.	.
.	.	.	16d/	.	.	.	.	.	.
8GJ 8D/	.	.	16b 16g/	.	.	8b/	-ję	.	.
.	.	.	16d/JJ	.	.	.	.	.	.
=136	=136	=136	=136	=136	=136	=136	=136	=136	=136
8C/L	4C\	.	16a/LL	.	.	8a\	naj-	.	.
.	.	.	16e/	.	.	.	.	.	.
8AJ 8E/	.	.	16cc 16a^</	.	.	4cc\	-sce-	.	.
.	.	.	16e/JJ	.	.	.	.	.	.
8AA/L	4AA\	.	16ccLL 16a/	.	.	.	.	.	.
.	.	.	16c/	.	.	.	.	.	.
8cJ 8E/	.	.	16e/	.	.	8e/	-rzej	.	.
.	.	.	16a/JJ	.	.	.	.	.	.
=137	=137	=137	=137	=137	=137	=137	=137	=137	=137
8D/L	4D\	.	16f#/LL	.	.	16f#/LL	ju-	.	.
.	.	.	16e/	.	.	16e/JJ	.	.	.
8AJ 8F#/	.	.	16d/	.	.	8d/	-tro	.	.
.	.	.	16f#/JJ	.	.	.	.	.	.
8D/L	4D\	.	16a/LL	.	.	8f#/	pój-	.	.
.	.	.	16d/	.	.	.	.	.	.
8AJ 8F#/	.	.	16dd/	.	.	8a/	-dę	.	.
.	.	.	16d/JJ	.	.	.	.	.	.
*v	*v	*	*	*	*	*	*	*	*
!!LO:LB:g=original
=138	=138	=138	=138	=138	=138	=138	=138	=138
!	!	!	!	!LO:HP:b	!	!	!	!
8GG/	.	16g/LL	.	<	8g/	w żoł-	.	.
.	.	16d/	.	.	.	.	.	.
(>16G\LL	.	16g/	.	.	4b/	-nie-	.	.
16d\JJ)	.	16dd/JJ	.	.	.	.	.	.
8d\L	.	16dd/LL	.	.	.	.	.	.
.	.	16g/	.	.	.	.	.	.
(>16d\L	.	16dd/	.	.	8g/	-rzy.	.	.
16g\JJ)	.	16gg/JJ	.	[[	.	.	.	.
=139	=139	=139	=139	=139	=139	=139	=139	=139
!	!	!	!	!LO:DY:b:t=ff.	!	!	!	!LO:DY:a:rj
*ped	*	*	*	*	*	*	*	*
8GG 8GGG/	.	8bb-XL 8gg\	.	ff	8.b-X\	Oj	.	ff
16r	.	16r	.	.	.	.	.	.
16gKL 16d 16B-X 16G\	.	16dddJk 16gg 16dd\	.	.	16dd\	da	.	.
8g 8d 8B- 8G\	.	8dddL 8gg 8dd\	.	.	8dd\	da-	.	.
8gJ 8d 8B- 8G\	.	8dddJ 8gg 8dd\	.	.	8dd\	-na	.	.
*Xped	*	*	*	*	*	*	*	*
=140	=140	=140	=140	=140	=140	=140	=140	=140
8C 8CC/	.	8ccc 8gg 8cc\	.	.	8cc\	oj	.	.
*tremolo	*	*	*	*	*	*	*	*
8e-X 8c 8A-X 8E-X\L	.	4eee-X 4aa-X 4ee-X\	.	.	4ee-X^^>\	da-	.	.
8e-X 8c 8A-X 8E-X\	.	.	.	.	.	.	.	.
8e-X 8c 8A-X 8E-X\J	.	8ccc 8ee-\	.	.	8a-X/	-na	.	.
=141	=141	=141	=141	=141	=141	=141	=141	=141
8E 8EE/	.	8gg#X 8dd 8b\	.	.	8.g#X/	do-	.	.
8e 8B 8G#X\L	.	16r	.	.	.	.	.	.
.	.	16bbKL 16gg# 16dd 16b\	.	.	16b/	-loz	.	.
8e 8B 8G#X\	.	8bb 8gg# 8dd 8b\	.	.	8b/	mo-	.	.
8e 8B 8G#X\J	.	8bbJ 8gg# 8dd 8b\	.	.	8b/	-ja	.	.
=142	=142	=142	=142	=142	=142	=142	=142	=142
8AA 8AAA/	.	8aa 8ee 8cc\	.	.	8a/	Ko-	.	.
8e 8c 8A 8E\L	.	4ccc 4aa 4ee 4cc\	.	.	4cc^^>\	-cha-	.	.
8e 8c 8A 8E\	.	.	.	.	.	.	.	.
8e 8c 8A 8E\J	.	8ee 8cc\	.	.	8e/	-na	.	.
!!LO:PB:g=original
=143	=143	=143	=143	=143	=143	=143	=143	=143
8D 8DD/	.	8ff# 8cc 8a\	.	.	8.f#/	oj	.	.
8d 8A 8F#\L	.	16r	.	.	.	.	.	.
.	.	16aa 16ff# 16cc 16a\	.	.	16a/	da	.	.
8d 8A 8F#\	.	8aaL 8ff# 8cc 8a\	.	.	8a/	da-	.	.
8d 8A 8F#\J	.	8aaJ 8ff# 8cc 8a\	.	.	8a/	-na	.	.
*Xtremolo	*	*	*	*	*	*	*	*
=144	=144	=144	=144	=144	=144	=144	=144	=144
8GG 8GGG/	.	8gg 8b\	.	.	8g/	oj	.	.
!	!	!	!	!LO:HP:b	!	!	!	!
(>4g 4d 4B 4G;>\	.	4bb 4gg 4dd 4b;>\	.	>	4gg 4b;>\	da-	.	.
8GG/)	.	8r	.	]]	8B/	-na	.	.
=145	=145	=145	=145	=145	=145	=145	=145	=145
*	*	*	*	*	*Xtuplet	*	*	*
!	!	!	!	!	!LO:TX:a:i:t=lento.	!	!	!
8AA/	.	8r	.	.	8c/	do-	.	.
!LO:TUP:a	!	!	!	!	!	!	!	!
24AA/LL	.	(<8eL 8c/	.	.	24c/LL	-loz	.	.
24BB/	.	.	.	.	24d/	.	.	.
24AA/JJ	.	.	.	.	24c/JJ	.	.	.
8GG/L	.	8e 8B/)	.	.	8B/	mo-	.	.
8FF#/J	.	8eJ 8A'/	.	.	8A/	-ja	.	.
=146	=146	=146	=146	=146	=146	=146	=146	=146
(<16GG/LL	.	16eLL 16B/	.	.	16B/LL	Ko-	.	.
16FF#/JJ	.	16A/JJ	.	.	16A/JJ	.	.	.
[>4.BB [<4.EE;>/)	.	4.e 4.G;>/	.	.	4G;>/	-cha-	.	.
.	.	.	.	.	8G/	-na.	.	.
=147||	=147||	=147||	=147||	=147||	=147||	=147||	=147||	=147||
*M2/2	*	*M2/2	*	*	*M2/2	*	*	*
*met(c|)	*	*met(c|)	*	*	*met(c|)	*	*	*
!	!	!	!	!	!LO:TX:a:i:t=non troppo lento.	!	!	!
!	!	!LO:N:vis=2	!	!	!	!	!	!
4BB] (<4EE/]	.	1rdd	.	.	1r	.	.	.
4BB/	.	.	.	.	.	.	.	.
4EE/	.	.	.	.	.	.	.	.
4BB/)	.	.	.	.	.	.	.	.
!!LO:LB:g=original
=148	=148	=148	=148	=148	=148	=148	=148	=148
4EE/	.	4r	.	.	4r	.	.	.
!	!	!LO:TX:b:i:t=ligatissimo.	!	!	!	!	!	!
4BB/	.	(>4a 4f# 4d#X 4B/	.	.	8b\	Gdy	.	.
.	.	.	.	.	8a\	tak	.	.
4E\	.	4g#X 4e 4B/	.	.	4g#X/	Ma-	.	.
4BB/	.	4a 4f# 4d# 4B/	.	.	8f#X/	-ciek	.	.
.	.	.	.	.	8a/	o-	.	.
=149	=149	=149	=149	=149	=149	=149	=149	=149
4E\	.	4g#X 4e 4B/	.	.	8g#X/	-cho-	.	.
.	.	.	.	.	8e/	-tnie,	.	.
4BB/	.	4a 4f# 4d#X 4B/	.	.	8d#X/	cóż	.	.
.	.	.	.	.	8f#/	to	.	.
4E\	.	4g# 4e 4B/	.	.	4e/	graj-	.	.
4BB/	.	4a 4f# 4d# 4B/	.	.	8f#/	-ko	.	.
.	.	.	.	.	8f#/	tak	.	.
=150	=150	=150	=150	=150	=150	=150	=150	=150
4E\	.	4gn 4e 4B/	.	.	8gn/	po-	.	.
.	.	.	.	.	8g/	-tnie,	.	.
4C/	.	4g 4e 4B-X/	.	.	8cc\	Kro-	.	.
.	.	.	.	.	8b-X\	-pla	.	.
4FFn/	.	4f# [<4c 4A/	.	.	4a/	z Kro-	.	.
4C/	.	4g 4e 4c] 4B-/	.	.	8g/	-pli	.	.
.	.	.	.	.	8b-/	przez	.	.
=151	=151	=151	=151	=151	=151	=151	=151	=151
4FFn/	.	4fn 4c 4A/	.	.	8a/	o-	.	.
.	.	.	.	.	8fn/	-czy	.	.
(<8C/L	.	4e 4c 4G/	.	.	8e/	z twa-	.	.
8BB-X/J	.	.	.	.	8g/	-rzy	.	.
4AA/	.	4f 4c 4A/	.	.	4f/	graj-	.	.
8GG/L|	.	4g 4e 4c/	.	.	8g/	-ka	.	.
8CC/J)	.	.	.	.	8g/	się	.	.
!!LO:LB:g=original
=152	=152	=152	=152	=152	=152	=152	=152	=152
*	*	*^	*	*	*	*	*	*
4FFn/	.	2a-X 2fn/	4c\	.	.	8a-X/	to-	.	.
.	.	.	.	.	.	8a-/	-czy,	.	.
4DD-X/	.	.	4c-X\	.	.	8dd-X\	znać	.	.
.	.	.	.	.	.	8cc-X\	się	.	.
4GG-X/	.	4b-X 4g-X 4B-X/	2rDyy	.	.	4b-X\	zma-	.	.
4DD-/	.	4a- 4f 4c-X/	.	.	.	8a-X\	-chał	.	.
.	.	.	.	.	.	8cc-X\	od	.	.
*	*	*v	*v	*	*	*	*	*	*
=153	=153	=153	=153	=153	=153	=153	=153	=153
4GG-X/	.	4g-X [<4d-X 4B-X/	.	.	8b-X\	gra-	.	.
.	.	.	.	.	8g-X/	-nia,	.	.
8D-X/L	.	4fn 4d-_< 4A-X/	.	.	8d-X/	skrzyp-	.	.
8C-X/J	.	.	.	.	8d-/	-ki	.	.
4BB-X/	.	4g- 4d-] 4G-X/	.	.	4g-/	rzu-	.	.
8AA-X/L	.	4a-X 4f 4d-/	.	.	8a-X/	-cił	.	.
!LO:SIC:v:s=DD-	!	!	!	!	!	!	!	!
8DD/J	.	.	.	.	8a-/	po-	.	.
=154	=154	=154	=154	=154	=154	=154	=154	=154
4GG-X/	.	4b-- 4g-X 4d-X/	.	.	8an/	-dep-	.	.
.	.	.	.	.	8a/	-tał	.	.
4DDn/	.	4a 4f#X [<4dn/	.	.	8dd\	o-	.	.
.	.	.	.	.	8cc\	-tarł	.	.
!	!	!LO:TX:t=P:problem:kasownik przed bemolem	!	!	!	!	!	!
!	!	!	!	!	!LO:SIC:v:s=4b-	!	!	!
4FFF#/	.	4b-X 4gn 4d] 4B-X/	.	.	4bn\	li-	.	.
4BBB/	.	4a 4f# 4d/	.	.	8a\	-ce	.	.
.	.	.	.	.	8cc\	suk-	.	.
!!LO:LB:g=original
=155	=155	=155	=155	=155	=155	=155	=155	=155
4FFF#/	.	4g 4d 4B-X/	.	.	8b-X/	-ma-	.	.
.	.	.	.	.	8g/	-ną	.	.
8DD/L	.	4f#X 4d 4A/	.	.	8f#/	i	.	.
8CC/J	.	.	.	.	8a/	cóś	.	.
4BBB-X/	.	4g [<4d 4G/	.	.	4g/	mru-	.	.
!	!	!	!	!	!LO:TX:a:t=P:problem:nuta poprawiona przez głównego skryptora; przed poprawieniem była nuta 8f	!	!	!
8GGG/L	.	4b-X 4g 4d/]	.	.	8b-X/	-czał	.	.
8BBB-/J	.	.	.	.	8g/	i	.	.
=156	=156	=156	=156	=156	=156	=156	=156	=156
*8ba	*	*	*	*	*	*	*	*
*	*	*^	*	*	*	*	*	*
!	!LO:DY:b:rj::t=fp.	!	!	!	!	!	!	!	!
[>1DDD	fp	8a 8f#X 8d/)	4rDyy	.	.	4d/	szep-	.	.
.	.	8r	.	.	.	.	.	.	.
.	.	(>2dd^</	4rG	.	.	8d/	-tał,	.	.
.	.	.	.	.	.	8dd\	a	.	.
!	!	!	!	!	!	!LO:TX:t=P:problem:diminuendolike accent	!	!	!
.	.	.	(<2g 2e-X\	.	.	8.dd^>\	dziéw-	.	.
.	.	.	.	.	.	16cc\	-ki	.	.
.	.	[4cc [4a/	.	.	.	8cc\	się	.	.
.	.	.	.	.	.	8cc\	spła-	.	.
=157	=157	=157	=157	=157	=157	=157	=157	=157	=157
1DDD_>	.	4cc] 4a/]	2fn 2d\	.	.	4cc\	-ka-	.	.
.	.	2b-X 2g/	.	.	.	8b-X\	-ły	.	.
.	.	.	.	.	.	8b-\	że	.	.
.	.	.	2e-X 2c\)	.	.	8b-\	skrzyp-	.	.
.	.	.	.	.	.	8a\	-ki	.	.
!	!	!	!	!	!	!LO:TX:t=P:problem:diminuendolike accent	!	!	!
.	.	[<4a [<4fn/	.	.	.	8.cc^\	grać	.	.
.	.	.	.	.	.	16b-\	prze-	.	.
!!LO:PB:g=original
=158	=158	=158	=158	=158	=158	=158	=158	=158	=158
!LO:TX:t=P:problem:w źródle zkończenie łuku na dole	!	!	!	!	!	!	!	!	!
1DDD_>	.	4a] 4fnX/]	2d 2B-X\	.	.	4a/	-sta-	.	.
.	.	2g 2e-X/	.	.	.	16g/	-ły	.	.
.	.	.	.	.	.	16r	.	.	.
.	.	.	.	.	.	8g/	a	.	.
.	.	.	2c 2A\	.	.	8.g/	dziew-	.	.
.	.	.	.	.	.	16fn/	-ki	.	.
.	.	[>4f [>4d/	.	.	.	8f/	się	.	.
.	.	.	.	.	.	8f/	spła-	.	.
=159	=159	=159	=159	=159	=159	=159	=159	=159	=159
1DDD]	.	4f] 4d/]	2B-X 2G\	.	.	4fn/	-ka-	.	.
.	.	2e-X 2c/	.	.	.	8e-X/	-ły	.	.
.	.	.	.	.	.	16r	.	.	.
.	.	.	.	.	.	16e-/	że	.	.
.	.	.	2A 2G\	.	.	8e-X/	skrzyp-	.	.
.	.	.	.	.	.	8d/	-ki	.	.
.	.	4e- 4c;>/)	.	.	.	8.fn;>/	grać	.	.
.	.	.	.	.	.	16e-/	prze-	.	.
*	*	*v	*v	*	*	*	*	*	*
*X8ba	*	*	*	*	*	*	*	*
=160||	=160||	=160||	=160||	=160||	=160||	=160||	=160||	=160||
*M2/4	*	*M2/4	*	*	*M2/4	*	*	*
*8ba	*	*	*	*	*	*	*	*
*tremolo	*	*	*	*	*	*	*	*
!LO:TX:t=P:problem:8va bassa	!	!	!	!	!LO:TX:a:i:t=tempo 1mo.	!	!	!
!LO:TX:t:i:b:t=8va bassa	!	!	!	!	!	!	!	!
!	!	!	!	!LO:DY:b:rj:t=ppp.	!	!	!	!
32DDD/LLL	.	(>8d 8A 8F#/	.	ppp	2d/	-sta-	.	.
32DD\	.	.	.	.	.	.	.	.
32DDD/	.	.	.	.	.	.	.	.
32DD\	.	.	.	.	.	.	.	.
32DDD/	.	4d/	.	.	.	.	.	.
32DD\	.	.	.	.	.	.	.	.
32DDD/	.	.	.	.	.	.	.	.
32DD\	.	.	.	.	.	.	.	.
32DDD/	.	.	.	.	.	.	.	.
32DD\	.	.	.	.	.	.	.	.
32DDD/	.	.	.	.	.	.	.	.
32DD\	.	.	.	.	.	.	.	.
32DDD/	.	8d/	.	.	.	.	.	.
32DD\	.	.	.	.	.	.	.	.
32DDD/	.	.	.	.	.	.	.	.
32DD\JJJ	.	.	.	.	.	.	.	.
*Xtremolo	*	*	*	*	*	*	*	*
=161	=161	=161	=161	=161	=161	=161	=161	=161
*rep	*	*	*	*	*	*	*	*
32DDD/LLL	.	8e-X 8d 8c#X/	.	.	4d/	-ły.	.	.
32DD\	.	.	.	.	.	.	.	.
32DDD/	.	.	.	.	.	.	.	.
32DD\	.	.	.	.	.	.	.	.
32DDD/	.	4e- 4d 4c#/	.	.	.	.	.	.
32DD\	.	.	.	.	.	.	.	.
32DDD/	.	.	.	.	.	.	.	.
32DD\	.	.	.	.	.	.	.	.
!	!	!	!	!	!LO:N:vis=2	!	!	!
32DDD/	.	.	.	.	4r	.	.	.
32DD\	.	.	.	.	.	.	.	.
32DDD/	.	.	.	.	.	.	.	.
32DD\	.	.	.	.	.	.	.	.
32DDD/	.	8e- 8d 8c#/)	.	.	.	.	.	.
32DD\	.	.	.	.	.	.	.	.
32DDD/	.	.	.	.	.	.	.	.
32DD\JJJ	.	.	.	.	.	.	.	.
*Xrep	*	*	*	*	*	*	*	*
!!LO:LB:g=original
=162	=162	=162	=162	=162	=162	=162	=162	=162
*rep	*	*	*	*	*	*	*	*
32DDD/LLL	.	8en 8d 8cn/	.	.	2r	.	.	.
32DD\	.	.	.	.	.	.	.	.
32DDD/	.	.	.	.	.	.	.	.
32DD\	.	.	.	.	.	.	.	.
32DDD/	.	4e 4d 4c/	.	.	.	.	.	.
32DD\	.	.	.	.	.	.	.	.
32DDD/	.	.	.	.	.	.	.	.
32DD\	.	.	.	.	.	.	.	.
32DDD/	.	.	.	.	.	.	.	.
32DD\	.	.	.	.	.	.	.	.
32DDD/	.	.	.	.	.	.	.	.
32DD\	.	.	.	.	.	.	.	.
32DDD/	.	8e 8d 8c/	.	.	.	.	.	.
32DD\	.	.	.	.	.	.	.	.
32DDD/	.	.	.	.	.	.	.	.
32DD\JJJ	.	.	.	.	.	.	.	.
*Xrep	*	*	*	*	*	*	*	*
=163	=163	=163	=163	=163	=163	=163	=163	=163
*rep	*	*	*	*	*	*	*	*
32DDD/LLL	.	8f# 8d 8A/	.	.	2r	.	.	.
32DD\	.	.	.	.	.	.	.	.
32DDD/	.	.	.	.	.	.	.	.
32DD\	.	.	.	.	.	.	.	.
32DDD/	.	4f# 4d 4A/	.	.	.	.	.	.
32DD\	.	.	.	.	.	.	.	.
32DDD/	.	.	.	.	.	.	.	.
32DD\	.	.	.	.	.	.	.	.
32DDD/	.	.	.	.	.	.	.	.
32DD\	.	.	.	.	.	.	.	.
32DDD/	.	.	.	.	.	.	.	.
32DD\	.	.	.	.	.	.	.	.
32DDD/	.	8f# 8d 8A/	.	.	.	.	.	.
32DD\	.	.	.	.	.	.	.	.
32DDD/	.	.	.	.	.	.	.	.
32DD\JJJ	.	.	.	.	.	.	.	.
*Xrep	*	*	*	*	*	*	*	*
=164	=164	=164	=164	=164	=164	=164	=164	=164
*rep	*	*	*	*	*	*	*	*
*	*	*tremolo	*	*	*	*	*	*
32DDD/LLL	.	8g 8d 8B/L	.	.	8d/	„Bądź-	.	.
32DD\	.	.	.	.	.	.	.	.
32DDD/	.	.	.	.	.	.	.	.
32DD\	.	.	.	.	.	.	.	.
32DDD/	.	8g 8d 8B/J	.	.	8g/	-cież	.	.
32DD\	.	.	.	.	.	.	.	.
32DDD/	.	.	.	.	.	.	.	.
32DD\	.	.	.	.	.	.	.	.
32DDD/	.	8g 8d 8B-X/L	.	.	8g/	zdro-	.	.
32DD\	.	.	.	.	.	.	.	.
32DDD/	.	.	.	.	.	.	.	.
32DD\	.	.	.	.	.	.	.	.
32DDD/	.	8g 8d 8B-X/J	.	.	8g/	-wi	.	.
32DD\	.	.	.	.	.	.	.	.
32DDD/	.	.	.	.	.	.	.	.
32DD\JJJ	.	.	.	.	.	.	.	.
*Xrep	*	*	*	*	*	*	*	*
=165	=165	=165	=165	=165	=165	=165	=165	=165
*rep	*	*	*	*	*	*	*	*
32DDD/LLL	.	8f# 8d 8A/L	.	.	16f#/LL	wy	.	.
32DD\	.	.	.	.	.	.	.	.
32DDD/	.	.	.	.	16e/JJ	.	.	.
32DD\	.	.	.	.	.	.	.	.
32DDD/	.	8f# 8d 8A/J	.	.	4d/	sta-	.	.
32DD\	.	.	.	.	.	.	.	.
32DDD/	.	.	.	.	.	.	.	.
32DD\	.	.	.	.	.	.	.	.
32DDD/	.	8fn 8d 8A/L	.	.	.	.	.	.
32DD\	.	.	.	.	.	.	.	.
32DDD/	.	.	.	.	.	.	.	.
32DD\	.	.	.	.	.	.	.	.
32DDD/	.	8fn 8d 8A/J	.	.	8d/	-rzy,	.	.
32DD\	.	.	.	.	.	.	.	.
32DDD/	.	.	.	.	.	.	.	.
32DD\JJJ	.	.	.	.	.	.	.	.
*Xrep	*	*	*	*	*	*	*	*
=166	=166	=166	=166	=166	=166	=166	=166	=166
*rep	*	*	*	*	*	*	*	*
32DDD/LLL	.	8fn 8d 8B 8G/L	.	.	8g/	nie-	.	.
32DD\	.	.	.	.	.	.	.	.
32DDD/	.	.	.	.	.	.	.	.
32DD\	.	.	.	.	.	.	.	.
32DDD/	.	8fn 8d 8B 8G/J	.	.	8b\	-chaj	.	.
32DD\	.	.	.	.	.	.	.	.
32DDD/	.	.	.	.	.	.	.	.
32DD\	.	.	.	.	.	.	.	.
32DDD/	.	8f 8d 8B 8G#X/L	.	.	8.dd\	Pan	.	.
32DD\	.	.	.	.	.	.	.	.
32DDD/	.	.	.	.	.	.	.	.
32DD\	.	.	.	.	.	.	.	.
32DDD/	.	8f 8d 8B 8G#X/J	.	.	.	.	.	.
32DD\	.	.	.	.	.	.	.	.
32DDD/	.	.	.	.	16b\	Bóg	.	.
32DD\JJJ	.	.	.	.	.	.	.	.
*Xrep	*	*	*	*	*	*	*	*
!!LO:LB:g=original
=167	=167	=167	=167	=167	=167	=167	=167	=167
*rep	*	*	*	*	*	*	*	*
32DDD/LLL	.	8e 8c 8A/L	.	.	(<16b/LL	wam	.	.
32DD\	.	.	.	.	.	.	.	.
32DDD/	.	.	.	.	16a/JJ)	.	.	.
32DD\	.	.	.	.	.	.	.	.
32DDD/	.	8e 8c 8A/J	.	.	4a/	da-	.	.
32DD\	.	.	.	.	.	.	.	.
32DDD/	.	.	.	.	.	.	.	.
32DD\	.	.	.	.	.	.	.	.
32DDD/	.	8e-X 8c 8G/L	.	.	.	.	.	.
32DD\	.	.	.	.	.	.	.	.
32DDD/	.	.	.	.	.	.	.	.
32DD\	.	.	.	.	.	.	.	.
32DDD/	.	8e-X 8c 8G/J	.	.	8a/	-rzy,	.	.
32DD\	.	.	.	.	.	.	.	.
32DDD/	.	.	.	.	.	.	.	.
32DD\JJJ	.	.	.	.	.	.	.	.
*Xrep	*	*	*	*	*	*	*	*
*	*	*clefF4	*	*	*	*	*	*
=168	=168	=168	=168	=168	=168	=168	=168	=168
*rep	*	*	*	*	*	*	*	*
32DDD/LLL	.	8d 8B 8G\L	.	.	8b\	a	.	.
32DD\	.	.	.	.	.	.	.	.
32DDD/	.	.	.	.	.	.	.	.
32DD\	.	.	.	.	.	.	.	.
32DDD/	.	8d 8B 8G\J	.	.	8dd\	gdy	.	.
32DD\	.	.	.	.	.	.	.	.
32DDD/	.	.	.	.	.	.	.	.
32DD\	.	.	.	.	.	.	.	.
32DDD/	.	8d 8A 8Fn\L	.	.	8dd\	skrzyp-	.	.
32DD\	.	.	.	.	.	.	.	.
32DDD/	.	.	.	.	.	.	.	.
32DD\	.	.	.	.	.	.	.	.
32DDD/	.	8d 8A 8Fn\J	.	.	8dd\	-ków	.	.
32DD\	.	.	.	.	.	.	.	.
32DDD/	.	.	.	.	.	.	.	.
32DD\JJJ	.	.	.	.	.	.	.	.
*Xrep	*	*	*	*	*	*	*	*
=169	=169	=169	=169	=169	=169	=169	=169	=169
*rep	*	*	*	*	*	*	*	*
32DDD/LLL	.	8c#X 8A 8E\L	.	.	16cc#X\LL	nie	.	.
32DD\	.	.	.	.	.	.	.	.
32DDD/	.	.	.	.	16b\JJ	.	.	.
32DD\	.	.	.	.	.	.	.	.
32DDD/	.	8c#X 8A 8E\J	.	.	4a\	sta-	.	.
32DD\	.	.	.	.	.	.	.	.
32DDD/	.	.	.	.	.	.	.	.
32DD\	.	.	.	.	.	.	.	.
32DDD/	.	8cn 8G 8E-X\L	.	.	.	.	.	.
32DD\	.	.	.	.	.	.	.	.
32DDD/	.	.	.	.	.	.	.	.
32DD\	.	.	.	.	.	.	.	.
32DDD/	.	8cn 8G 8E-X\J	.	.	8a\	-ło	.	.
32DD\	.	.	.	.	.	.	.	.
32DDD/	.	.	.	.	.	.	.	.
32DD\JJJ	.	.	.	.	.	.	.	.
*Xrep	*	*	*	*	*	*	*	*
=170	=170	=170	=170	=170	=170	=170	=170	=170
16DDD/LL	.	8cL 8F# 8D\	.	.	8a\	by	.	.
16DD/	.	.	.	.	.	.	.	.
16EEE-X/	.	8c 8G 8E-X\	.	.	8cc\	się	.	.
16EE-X/JJ	.	.	.	.	.	.	.	.
16EEEn/LL	.	8c 8G#X 8En\	.	.	8cc\	w kar-	.	.
16EEn/	.	.	.	.	.	.	.	.
16FFF#X/	.	8cJ 8A 8F#X\	.	.	8cc\	-czmie	.	.
16FF#X/JJ	.	.	.	.	.	.	.	.
=171	=171	=171	=171	=171	=171	=171	=171	=171
*tremolo	*	*	*	*	*	*	*	*
32GGG/LLL	.	8B 8G\	.	.	16b/LL	hu-	.	.
32GG\	.	.	.	.	.	.	.	.
32GGG/	.	.	.	.	16a/JJ	.	.	.
32GG\	.	.	.	.	.	.	.	.
32GGG/	.	4d 4B 4G\	.	.	4g/	-la-	.	.
32GG\	.	.	.	.	.	.	.	.
32GGG/	.	.	.	.	.	.	.	.
32GG\	.	.	.	.	.	.	.	.
32GGG/	.	.	.	.	.	.	.	.
32GG\	.	.	.	.	.	.	.	.
32GGG/	.	.	.	.	.	.	.	.
32GG\	.	.	.	.	.	.	.	.
*	*	*clefG2	*	*	*	*	*	*
32GGG/	.	8g 8d 8B/	.	.	8g/	-ło,	.	.
32GG\	.	.	.	.	.	.	.	.
32GGG/	.	.	.	.	.	.	.	.
32GG\JJJ	.	.	.	.	.	.	.	.
!!LO:LB:g=original
=172	=172	=172	=172	=172	=172	=172	=172	=172
32GGG/LLL	.	8b 8g 8d/L	.	.	8.b\	śpie-	.	.
32GG\	.	.	.	.	.	.	.	.
32GGG/	.	.	.	.	.	.	.	.
32GG\	.	.	.	.	.	.	.	.
32GGG/	.	8b 8g 8d/J	.	.	.	.	.	.
32GG\	.	.	.	.	.	.	.	.
32GGG/	.	.	.	.	16dd\	-wam	.	.
32GG\	.	.	.	.	.	.	.	.
32GGG/	.	8b-X 8g 8d/L	.	.	8dd\	so-	.	.
32GG\	.	.	.	.	.	.	.	.
32GGG/	.	.	.	.	.	.	.	.
32GG\	.	.	.	.	.	.	.	.
32GGG/	.	8b-X 8g 8d/J	.	.	8dd\	-bie:	.	.
32GG\	.	.	.	.	.	.	.	.
32GGG/	.	.	.	.	.	.	.	.
32GG\JJJ	.	.	.	.	.	.	.	.
*Xtremolo	*	*	*	*	*	*	*	*
=173	=173	=173	=173	=173	=173	=173	=173	=173
*rep	*	*	*	*	*	*	*	*
32GGG/LLL	.	8a 8e 8c#X/L	.	.	8cc#X\	oj	.	.
32GG\	.	.	.	.	.	.	.	.
32GGG/	.	.	.	.	.	.	.	.
32GG\	.	.	.	.	.	.	.	.
32GGG/	.	8a 8e 8c#X/J	.	.	4ee^^>\	da-	.	.
32GG\	.	.	.	.	.	.	.	.
32GGG/	.	.	.	.	.	.	.	.
32GG\	.	.	.	.	.	.	.	.
32GGG/	.	8g 8e-X 8cn/L	.	.	.	.	.	.
32GG\	.	.	.	.	.	.	.	.
32GGG/	.	.	.	.	.	.	.	.
32GG\	.	.	.	.	.	.	.	.
32GGG/	.	8g 8e-X 8cn/J	.	.	8a/	-na!	.	.
32GG\	.	.	.	.	.	.	.	.
32GGG/	.	.	.	.	.	.	.	.
32GG\JJJ	.	.	.	.	.	.	.	.
*Xrep	*	*	*	*	*	*	*	*
=174	=174	=174	=174	=174	=174	=174	=174	=174
*rep	*	*	*	*	*	*	*	*
32GGG/LLL	.	8f# 8d 8A/L	.	.	8.a\	do-	.	.
32GG\	.	.	.	.	.	.	.	.
32GGG/	.	.	.	.	.	.	.	.
32GG\	.	.	.	.	.	.	.	.
32GGG/	.	8f# 8d 8A/J	.	.	.	.	.	.
32GG\	.	.	.	.	.	.	.	.
32GGG/	.	.	.	.	16cc\	-loz	.	.
32GG\	.	.	.	.	.	.	.	.
32GGG/	.	8fn 8c 8A-X/L	.	.	8cc\	mo-	.	.
32GG\	.	.	.	.	.	.	.	.
32GGG/	.	.	.	.	.	.	.	.
32GG\	.	.	.	.	.	.	.	.
32GGG/	.	8fn 8c 8A-X/J	.	.	8cc\	-ja	.	.
32GG\	.	.	.	.	.	.	.	.
32GGG/	.	.	.	.	.	.	.	.
32GG\JJJ	.	.	.	.	.	.	.	.
*Xrep	*	*	*	*	*	*	*	*
=175	=175	=175	=175	=175	=175	=175	=175	=175
*rep	*	*	*	*	*	*	*	*
32GGG/LLL	.	8fn 8B 8G/L	.	.	8b\	Ko-	.	.
32GG\	.	.	.	.	.	.	.	.
32GGG/	.	.	.	.	.	.	.	.
32GG\	.	.	.	.	.	.	.	.
32GGG/	.	8fn 8B 8G/J	.	.	4dd^^>\	-cha-	.	.
32GG\	.	.	.	.	.	.	.	.
32GGG/	.	.	.	.	.	.	.	.
32GG\	.	.	.	.	.	.	.	.
32GGG/	.	8e-X 8c 8G/L	.	.	.	.	.	.
32GG\	.	.	.	.	.	.	.	.
32GGG/	.	.	.	.	.	.	.	.
32GG\	.	.	.	.	.	.	.	.
32GGG/	.	8e-X 8c 8G/J	.	.	8g/	-na	.	.
32GG\	.	.	.	.	.	.	.	.
32GGG/	.	.	.	.	.	.	.	.
32GG\JJJ	.	.	.	.	.	.	.	.
*Xrep	*	*	*	*	*	*	*	*
=176	=176	=176	=176	=176	=176	=176	=176	=176
*rep	*	*	*	*	*	*	*	*
32GGG/LLL	.	8d 8B 8G/L	.	.	8.g/	Spie-	.	.
32GG\	.	.	.	.	.	.	.	.
32GGG/	.	.	.	.	.	.	.	.
32GG\	.	.	.	.	.	.	.	.
32GGG/	.	8d 8B 8G/J	.	.	.	.	.	.
32GG\	.	.	.	.	.	.	.	.
32GGG/	.	.	.	.	16b\	-wam	.	.
32GG\	.	.	.	.	.	.	.	.
*	*	*clefF4	*	*	*	*	*	*
32GGG/	.	8d 8B 8Fn\L	.	.	8b\	so-	.	.
32GG\	.	.	.	.	.	.	.	.
32GGG/	.	.	.	.	.	.	.	.
32GG\	.	.	.	.	.	.	.	.
32GGG/	.	8d 8B 8Fn\J	.	.	8b\	-bie	.	.
32GG\	.	.	.	.	.	.	.	.
32GGG/	.	.	.	.	.	.	.	.
32GG\JJJ	.	.	.	.	.	.	.	.
*Xrep	*	*	*	*	*	*	*	*
!!LO:PB:g=original
=177	=177	=177	=177	=177	=177	=177	=177	=177
*tremolo	*	*	*	*	*	*	*	*
32GGG/LLL	.	8c 8A 8E\L	.	.	8a\	oj	.	.
32GG\	.	.	.	.	.	.	.	.
32GGG/	.	.	.	.	.	.	.	.
32GG\	.	.	.	.	.	.	.	.
32GGG/	.	8c 8A 8E\J	.	.	4cc\	da-	.	.
32GG\	.	.	.	.	.	.	.	.
32GGG/	.	.	.	.	.	.	.	.
32GG\	.	.	.	.	.	.	.	.
32GGG/	.	8c 8A 8E-X\L	.	.	.	.	.	.
32GG\	.	.	.	.	.	.	.	.
32GGG/	.	.	.	.	.	.	.	.
32GG\	.	.	.	.	.	.	.	.
32GGG/	.	8c 8A 8E-X\J	.	.	8a/	-na	.	.
32GG\	.	.	.	.	.	.	.	.
32GGG/	.	.	.	.	.	.	.	.
32GG\JJJ	.	.	.	.	.	.	.	.
*Xtremolo	*	*	*	*	*	*	*	*
=178	=178	=178	=178	=178	=178	=178	=178	=178
*rep	*	*	*	*	*	*	*	*
32GGG/LLL	.	8cL 8A 8D\	.	.	16f#/LL	do-	.	.
32GG\	.	.	.	.	.	.	.	.
32GGG/	.	.	.	.	16e/JJ	.	.	.
!	!	!	!	!LO:HP:b	!	!	!	!
32GG\	.	.	.	<	.	.	.	.
32GGG/	.	8c 8A 8E\	.	.	8d/	-loz	.	.
32GG\	.	.	.	.	.	.	.	.
32GGG/	.	.	.	.	.	.	.	.
32GG\	.	.	.	.	.	.	.	.
32GGG/	.	8c 8A 8F#X\	.	.	8f#/	mo-	.	.
32GG\	.	.	.	.	.	.	.	.
32GGG/	.	.	.	.	.	.	.	.
32GG\	.	.	.	.	.	.	.	.
32GGG/	.	8cJ 8A 8D\	.	[[	8a/	-ja	.	.
32GG\	.	.	.	.	.	.	.	.
32GGG/	.	.	.	.	.	.	.	.
32GG\JJJ	.	.	.	.	.	.	.	.
*Xrep	*	*	*	*	*	*	*	*
=179	=179	=179	=179	=179	=179	=179	=179	=179
*^	*	*	*	*	*	*	*	*
!	!	!	!	!	!LO:HP:b	!	!	!	!
16FF#/LL	8FF#L 8GGG\	.	8B 8D\L	.	>	8g/	Ko-	.	.
16GG/	.	.	.	.	.	.	.	.	.
16FFn/	8FF 8GGG\	.	8B 8D\J	.	.	4b/	-cha-	.	.
16GG/JJ	.	.	.	.	.	.	.	.	.
16EE/LL	8EE 8GGG\	.	8B 8G\L	.	.	.	.	.	.
16GG/	.	.	.	.	]]	.	.	.	.
16EE-X/	8EE-J 8GGG\	.	8B 8G\J	.	.	8g/	-na,	.	.
16GG/JJ	.	.	.	.	.	.	.	.	.
*v	*v	*	*	*	*	*	*	*	*
=180	=180	=180	=180	=180	=180	=180	=180	=180
!	!	!	!	!	!	!	!	!LO:DY:a:t=pp.
!	!	!	!	!LO:DY:b:t=ppp.	!	!	!	!
16GGG/LL	.	8B-X 8G\	.	ppp	(>16b-X\LL	oj	.	pp
16GG/	.	.	.	.	16dd\JJ)	.	.	.
16DD/	.	4B- 4G 4D\	.	.	8dd\	da	.	.
16GG/JJ	.	.	.	.	.	.	.	.
*rep	*	*	*	*	*	*	*	*
16GGG/LL	.	.	.	.	8dd\	da-	.	.
16GG/	.	.	.	.	.	.	.	.
16DD/	.	8B- 8G 8D\	.	.	8dd\	-na,	.	.
16GG/JJ	.	.	.	.	.	.	.	.
*Xrep	*	*	*	*	*	*	*	*
*X8ba	*	*	*	*	*	*	*	*
=181	=181	=181	=181	=181	=181	=181	=181	=181
!LO:TX:b:i:t=loco	!	!	!	!	!	!	!	!
16CC/LL	.	8A-X 8E-X\	.	.	8cc\	oj	.	.
16C/	.	.	.	.	.	.	.	.
16EE-X/	.	4c 4A- 4E-\	.	.	4ee-X\	da-	.	.
16C/JJ	.	.	.	.	.	.	.	.
*rep	*	*	*	*	*	*	*	*
16CC/LL	.	.	.	.	.	.	.	.
16C/	.	.	.	.	.	.	.	.
16EE-/	.	8A- 8E-\	.	.	8a-X/	-na	.	.
16C/JJ	.	.	.	.	.	.	.	.
*Xrep	*	*	*	*	*	*	*	*
!!LO:LB:g=original
=182	=182	=182	=182	=182	=182	=182	=182	=182
16EEn/LL	.	8B 8G#X 8D\	.	.	16g#X/LL	do-	.	.
16BB/	.	.	.	.	16a/JJ	.	.	.
16GG#X/	.	4B 4G# 4D\	.	.	8b/	-loz	.	.
16BB/JJ	.	.	.	.	.	.	.	.
*rep	*	*	*	*	*	*	*	*
16EE/LL	.	.	.	.	8b/	mo-	.	.
16BB/	.	.	.	.	.	.	.	.
16GG#/	.	8B 8G# 8D\	.	.	8b/	-ja	.	.
16BB/JJ	.	.	.	.	.	.	.	.
*Xrep	*	*	*	*	*	*	*	*
=183	=183	=183	=183	=183	=183	=183	=183	=183
16AAA/LL	.	8c 8A 8C\	.	.	8a\	Ko-	.	.
16AA/	.	.	.	.	.	.	.	.
16EE/	.	4c 4A 4C\	.	.	4cc\	-cha-	.	.
16AA/JJ	.	.	.	.	.	.	.	.
*rep	*	*	*	*	*	*	*	*
16AAA/LL	.	.	.	.	.	.	.	.
16AA/	.	.	.	.	.	.	.	.
16EE/	.	8c 8A 8C\	.	.	8e/	-na	.	.
16AA/JJ	.	.	.	.	.	.	.	.
*Xrep	*	*	*	*	*	*	*	*
=184	=184	=184	=184	=184	=184	=184	=184	=184
16DD/LL	.	8A 8F# 8D\	.	.	16f#/LL	oj	.	.
16AA/	.	.	.	.	16g/JJ	.	.	.
16FF#/	.	4A 4F# 4D\	.	.	8a/	da	.	.
16AA/JJ	.	.	.	.	.	.	.	.
*rep	*	*	*	*	*	*	*	*
16DD/LL	.	.	.	.	8a/	da-	.	.
16AA/	.	.	.	.	.	.	.	.
16FF#/	.	8A 8F# 8D\	.	.	8a/	-na	.	.
16AA/JJ	.	.	.	.	.	.	.	.
*Xrep	*	*	*	*	*	*	*	*
=185	=185	=185	=185	=185	=185	=185	=185	=185
*8ba	*	*	*	*	*	*	*	*
*^	*	*	*	*	*	*	*	*
*	*	*	*Xtremolo	*	*	*	*	*	*
!LO:TX:t=P:problem:8va bassa	!	!	!	!	!	!	!	!	!
!LO:TX:b:i:t=8va bassa	!	!	!	!	!	!	!	!	!
(<16FF#/LL	8GGG\L	.	8BL 8D\	.	.	8g/	oj	.	.
16GG/JJ	.	.	.	.	.	.	.	.	.
16FFn/LL	8GGG\	.	8BJ 8D\	.	.	4b/	da-	.	.
16GG/JJ	.	.	.	.	.	.	.	.	.
16EE/LL	8GGG\	.	8BL 8G\	.	.	.	.	.	.
16GG/JJ	.	.	.	.	.	.	.	.	.
16EE-X/LL	8GGG\J	.	8BJ 8G\	.	.	8b/	-na	.	.
16GG/JJ)	.	.	.	.	.	.	.	.	.
*v	*v	*	*	*	*	*	*	*	*
=186	=186	=186	=186	=186	=186	=186	=186	=186
*	*	*^	*	*	*	*	*	*
!	!	!LO:TX:t=P:problem:2/left	!	!	!	!	!	!	!
16DD/LL	.	2c 2A/	(>8D\L	.	.	8a/	do-	.	.
16GG/JJ	.	.	.	.	.	.	.	.	.
16GGG/LL	.	.	8D#X\	.	.	24a/LL	-loz	.	.
.	.	.	.	.	.	24b/	.	.	.
16GG/JJ	.	.	.	.	.	.	.	.	.
.	.	.	.	.	.	24a/JJ	.	.	.
16GGG/LL	.	.	8E\	.	.	8f#/	mo-	.	.
16GG/JJ	.	.	.	.	.	.	.	.	.
16GGG/LL	.	.	8F#\J)	.	.	8d/	-ja	.	.
16GG/JJ	.	.	.	.	.	.	.	.	.
*	*	*v	*v	*	*	*	*	*	*
!!LO:LB:g=original
=187	=187	=187	=187	=187	=187	=187	=187	=187
*^	*	*	*	*	*	*	*	*
*tremolo	*	*	*tremolo	*	*	*	*	*	*
(<16FF#/LL	8GGG\L	.	8B 8D\L	.	.	4g/	Ko-	.	.
16GG/	.	.	.	.	.	.	.	.	.
16FFn/	8GGG\	.	8B 8D\J	.	.	.	.	.	.
16GG/JJ	.	.	.	.	.	.	.	.	.
16EE/LL	8GGG\	.	8B 8G\L	.	.	[>4dd\	-cha-	.	.
16GG/	.	.	.	.	.	.	.	.	.
16EE-X/	8GGG\J	.	8B 8G\J	.	.	.	.	.	.
16GG/JJ)	.	.	.	.	.	.	.	.	.
*v	*v	*	*	*	*	*	*	*	*
=188	=188	=188	=188	=188	=188	=188	=188	=188
*	*	*^	*	*	*	*	*	*
16DDLL 16GGG/	.	2c 2A/	(8D\L	.	.	4dd\]	.	.	.
16GG/JJ	.	.	.	.	.	.	.	.	.
16GGG/LL	.	.	8D#X\	.	.	.	.	.	.
16GG/JJ	.	.	.	.	.	.	.	.	.
!LO:TX:t=P:problem:mixed beam	!	!	!	!	!	!	!	!	!
16GGG/LL	.	.	8E\	.	.	4d/	-na	.	.
16GG\JJ	.	.	.	.	.	.	.	.	.
!LO:TX:t=P:problem:mixed beam	!	!	!	!	!	!	!	!	!
16GGG/LL	.	.	8F#\J)	.	.	.	.	.	.
16GG\JJ	.	.	.	.	.	.	.	.	.
*	*	*v	*v	*	*	*	*	*	*
=189	=189	=189	=189	=189	=189	=189	=189	=189
*^	*	*	*	*	*	*	*	*
(<16FF#/LL	8GGG\L	.	8B 8D\L	.	.	4g/	oj	.	.
16GG/	.	.	.	.	.	.	.	.	.
16FFn/	8GGG\	.	8B 8D\J	.	.	.	.	.	.
16GG/JJ	.	.	.	.	.	.	.	.	.
16EE/LL	8GGG\	.	8B 8G\L	.	.	[>4dd\	da-	.	.
16GG/	.	.	.	.	.	.	.	.	.
16EE-X/	8GGG\J	.	8B 8G\J	.	.	.	.	.	.
16GG/JJ)	.	.	.	.	.	.	.	.	.
*	*	*	*Xtremolo	*	*	*	*	*	*
=190	=190	=190	=190	=190	=190	=190	=190	=190	=190
*	*	*	*	*	*	*2\right	*	*	*
*	*	*	*^	*	*	*	*	*	*
16DD/LL	8GGG\	.	2c 2A/	(>8D\L	.	.	2dd\]	.	.	.
16GG/JJ	.	.	.	.	.	.	.	.	.	.
!LO:TX:t=P:problem:mixed beam	!	!	!	!	!	!	!	!	!	!
16GGG/LL	8rEEyy	.	.	8D#X\	.	.	.	.	.	.
16GG\JJ	.	.	.	.	.	.	.	.	.	.
!LO:TX:t=P:problem:mixed beam	!	!	!	!	!	!	!	!	!	!
16GGG/LL	4rEEyy	.	.	8E\	.	.	.	.	.	.
16GG\JJ	.	.	.	.	.	.	.	.	.	.
!LO:TX:t=P:problem:mixed beam	!	!	!	!	!	!	!	!	!	!
16GGG/LL	.	.	.	8F#\J)	.	.	.	.	.	.
16GG\JJ	.	.	.	.	.	.	.	.	.	.
*v	*v	*	*	*	*	*	*	*	*	*
*	*	*v	*v	*	*	*	*	*	*
=191	=191	=191	=191	=191	=191	=191	=191	=191
32GGG/LLL	.	8B 8G\	.	.	4g/	-na.	.	.
32GG\	.	.	.	.	.	.	.	.
32GGG/	.	.	.	.	.	.	.	.
32GG\	.	.	.	.	.	.	.	.
32GGG/	.	(>24B\LL	.	.	.	.	.	.
32GG\	.	.	.	.	.	.	.	.
.	.	24c\	.	.	.	.	.	.
32GGG/	.	.	.	.	.	.	.	.
.	.	24B\JJ	.	.	.	.	.	.
32GG\	.	.	.	.	.	.	.	.
32GGG/	.	8G\L	.	.	4r	.	.	.
32GG\	.	.	.	.	.	.	.	.
32GGG/	.	.	.	.	.	.	.	.
32GG\	.	.	.	.	.	.	.	.
32GGG/	.	8D'\J)	.	.	.	.	.	.
32GG\	.	.	.	.	.	.	.	.
32GGG/	.	.	.	.	.	.	.	.
32GG\JJJ	.	.	.	.	.	.	.	.
!!LO:LB:g=original
=192	=192	=192	=192	=192	=192	=192	=192	=192
32GGG/LLL	.	8G'\	.	.	2r	.	.	.
32DD/	.	.	.	.	.	.	.	.
32GGG/	.	.	.	.	.	.	.	.
32DD/	.	.	.	.	.	.	.	.
32GGG/	.	(24G\LL	.	.	.	.	.	.
32DD/	.	.	.	.	.	.	.	.
.	.	24A\	.	.	.	.	.	.
32GGG/	.	.	.	.	.	.	.	.
.	.	24G\JJ	.	.	.	.	.	.
32DD/	.	.	.	.	.	.	.	.
32GGG/	.	8D\L)	.	.	.	.	.	.
32DD/	.	.	.	.	.	.	.	.
32GGG/	.	.	.	.	.	.	.	.
32DD/	.	.	.	.	.	.	.	.
32GGG/	.	8BB'\J	.	.	.	.	.	.
32DD/	.	.	.	.	.	.	.	.
32GGG/	.	.	.	.	.	.	.	.
32DD/JJJ	.	.	.	.	.	.	.	.
=193	=193	=193	=193	=193	=193	=193	=193	=193
32GGG/LLL	.	8D'\	.	.	2r	.	.	.
32BBB/	.	.	.	.	.	.	.	.
32GGG/	.	.	.	.	.	.	.	.
32BBB/	.	.	.	.	.	.	.	.
*	*	*Xtuplet	*	*	*	*	*	*
32GGG/	.	(<24D/LL	.	.	.	.	.	.
32BBB/	.	.	.	.	.	.	.	.
.	.	24E/	.	.	.	.	.	.
32GGG/	.	.	.	.	.	.	.	.
.	.	24D/JJ	.	.	.	.	.	.
32BBB/	.	.	.	.	.	.	.	.
32GGG/	.	8BB/L)	.	.	.	.	.	.
32BBB/	.	.	.	.	.	.	.	.
32GGG/	.	.	.	.	.	.	.	.
32BBB/	.	.	.	.	.	.	.	.
32GGG/	.	8GG'/J	.	.	.	.	.	.
32BBB/	.	.	.	.	.	.	.	.
32GGG/	.	.	.	.	.	.	.	.
32BBB/JJJ	.	.	.	.	.	.	.	.
*Xtremolo	*	*	*	*	*	*	*	*
=194	=194	=194	=194	=194	=194	=194	=194	=194
8GGG/	.	8BB'/	.	.	2ryy	.	.	.
8GGG/L	.	(<24GG/LL	.	.	.	.	.	.
.	.	24AA/	.	.	.	.	.	.
.	.	24GG/JJ	.	.	.	.	.	.
8DDD/	.	8DD/L)	.	.	.	.	.	.
8BBBB/J	.	8BBB/J	.	.	.	.	.	.
=195	=195	=195	=195	=195	=195	=195	=195	=195
2GGGG;>/	.	2GGG;>/	.	.	2ryy	.	.	.
*X8ba	*	*	*	*	*	*	*	*
==	==	==	==	==	==	==	==	==
*-	*-	*-	*-	*-	*-	*-	*-	*-
!!!system-decoration: s1{(s2,s3)}
!!!RDF**kern: > = above
!!!RDF**kern: < = below
!!!EED: Antoni Szymański
!!!EST: 2021-04-15
!!!ENC: Marcin Jachim
!!!END: 2021-03-29
!!!RDF**kern: | = vertical stroke
